!!!!SEGMENT: pl-cz--iii-273--002_gotschalk-filip--vesperae-in-d-laudate.krn
!!!cenid: 18xx:144
!!!COM: Gotschalk, Filip
!!!COM-rismid: pe30020320
!!!CDT: 1760-1809
!!!CNT:
!!!OPR: Vesperae in D
!!!OTL: Laudate
!!!OMV: 002
!!!PDT:
!!!AGN: Sacred; Vespers
!!!SMS-siglum: PL-CZ
!!!SMS-shelfmark: III-273
!!!SMS-shelfwork: 001-002 M
!!!NIFC-rismid:
!!!URL-scan: http://repozytorium.nifc.pl/skany/pl-cz-nut--iii-273
!!!ONB-nifc:
**kern	**fb	**dynam	**kern	**dynam	**kern	**dynam	**kern	**text	**kern	**text	**kern	**text	**kern	**text	**kern	**kern
*part9	*part9	*part9	*part8	*part8	*part7	*part7	*part6	*part6	*part5	*part5	*part4	*part4	*part3	*part3	*part2	*part1
*staff9	*staff9	*staff9	*staff8	*staff8	*staff7	*staff7	*staff6	*staff6	*staff5	*staff5	*staff4	*staff4	*staff3	*staff3	*staff2	*staff1
*group4	*	*	*group3	*	*group3	*	*group2	*	*group2	*	*group2	*	*group2	*	*group1	*group1
*Iorgan	*	*	*Ivioln	*	*Ivioln	*	*Iempty	*	*Itenor	*	*Ialto	*	*Ivox	*	*Iempty	*Iempty
*I"Organo	*	*	*I"Violino secondo	*	*I"Violino primo	*	*I"Basſo	*	*I"Tenore	*	*I"Alto	*	*I"Canto	*	*I"Clarino Secondo in D	*I"Clarino Primo in D
*I'Org	*	*	*I'Vn II	*	*I'Vn I	*	*I'B	*	*I'T	*	*I'A	*	*I'C	*	*I'Clno II	*I'Clno I
*clefF4	*	*	*clefG2	*	*clefG2	*	*clefF4	*	*clefC4	*	*clefC3	*	*clefC1	*	*clefG2	*clefG2
*	*	*	*	*	*	*	*	*	*	*	*	*	*	*	*ITrd-1c-2	*ITrd-1c-2
*k[f#c#]	*	*	*k[f#c#]	*	*k[f#c#]	*	*k[f#c#]	*	*k[f#c#]	*	*k[f#c#]	*	*k[f#c#]	*	*k[f#c#]	*k[f#c#]
*D:	*	*	*D:	*	*D:	*	*D:	*	*D:	*	*D:	*	*D:	*	*	*
*M2/4	*	*	*M2/4	*	*M2/4	*	*M2/4	*	*M2/4	*	*M2/4	*	*M2/4	*	*M2/4	*M2/4
=1	=1	=1	=1	=1	=1	=1	=1	=1	=1	=1	=1	=1	=1	=1	=1	=1
!LO:TX:a:t=problem:mixed beam	!	!	!	!	!	!	!LO:TX:b:t=8	!	!	!	!	!	!	!	!	!
!LO:TX:a:t=Moderato	!	!	!LO:TX:a:t=Moderato	!	!LO:TX:a:t=Moderato	!LO:DY:t=Forte.	!LO:TX:a:t=Moderato	!	!LO:TX:a:t=8	!	!	!	!LO:TX:a:t=8	!	!LO:TX:a:t=Moderato	!LO:TX:a:B:t=Moderato
!	!	!LO:DY:t=piano.	!	!	!	!	!LO:N:vis=00	!	!LO:N:vis=00	!	!LO:N:vis=00	!	!LO:N:vis=00	!	!	!
8d\L	.	p	(16A/LL 16f#	.	(16dd\LL	f	0r	.	0r	.	0r	.	0r	.	4f#/	4dd\
.	.	.	16e/)	.	16cc#\	.	.	.	.	.	.	.	.	.	.	.
8d\	.	.	(16A/ 16f#	.	16dd\	.	.	.	.	.	.	.	.	.	.	.
.	.	.	16g/JJ)	.	16ee\JJ)	.	.	.	.	.	.	.	.	.	.	.
!	!	!	!	!	!LO:TX:a:t=problem:mixed beam	!	!	!	!	!	!	!	!	!	!	!
8d`\	.	.	8A/L 8f#	.	8dd\L	.	.	.	.	.	.	.	.	.	8f#/L	8dd\L
8D`/J	.	.	8A/J 8f#	.	8d/J	.	.	.	.	.	.	.	.	.	8f#/J	8dd\J
=2	=2	=2	=2	=2	=2	=2	=2	=2	=2	=2	=2	=2	=2	=2	=2	=2
!LO:TX:a:t=problem:mixed beam	!	!	!	!	!	!	!	!	!	!	!	!	!	!	!	!
8d\L	.	.	(16dd\LL	.	(16ff#\LL	.	.	.	.	.	.	.	.	.	4dd\	4ff#\
.	.	.	16cc#\	.	16ee\	.	.	.	.	.	.	.	.	.	.	.
8d\	.	.	16dd\	.	16ff#\	.	.	.	.	.	.	.	.	.	.	.
.	.	.	16ee\JJ)	.	16gg\JJ)	.	.	.	.	.	.	.	.	.	.	.
!	!	!	!LO:TX:a:t=problem:mixed beam	!	!LO:TX:a:t=problem:mixed beam	!	!	!	!	!	!	!	!	!	!	!
8d`\	.	.	8dd`\L	.	8ff#\L	.	.	.	.	.	.	.	.	.	8dd\L	8ff#\L
8D`/J	.	.	8d`/J	.	8d/J	.	.	.	.	.	.	.	.	.	8dd\J	8ff#\J
=3	=3	=3	=3	=3	=3	=3	=3	=3	=3	=3	=3	=3	=3	=3	=3	=3
*2\right	*	*	*	*	*	*	*	*	*	*	*	*	*	*	*	*
*tremolo	*	*	*	*	*	*	*	*	*	*	*	*	*	*	*	*
8D\L	.	.	8ff#\L	.	8aa\L	.	.	.	.	.	.	.	.	.	4ff#\	4aa\
8D\	.	.	8ff#\J	.	8aa\J	.	.	.	.	.	.	.	.	.	.	.
8D\	.	.	(16gg\LL	.	(16bb\LL	.	.	.	.	.	.	.	.	.	4r	4r
.	.	.	16aa\	.	16ccc#\	.	.	.	.	.	.	.	.	.	.	.
8D\J	.	.	16bb\	.	16ddd\	.	.	.	.	.	.	.	.	.	.	.
.	.	.	16gg\JJ)	.	16bb\JJ)	.	.	.	.	.	.	.	.	.	.	.
!	!	!	!	!	!LO:LB:g=original	!	!	!	!	!	!	!	!	!	!	!
=4	=4	=4	=4	=4	=4	=4	=4	=4	=4	=4	=4	=4	=4	=4	=4	=4
!LO:TX:a:t=problem:mixed beam	!	!	!	!	!	!	!	!	!	!	!	!	!	!	!	!
8E\L	.	.	(8cc#\L	.	(8aa\L	.	.	.	.	.	.	.	.	.	8ff#\L	8aa\L
8AA/J	.	.	8ee\J)	.	8gg\J	.	.	.	.	.	.	.	.	.	8ee\J	8gg\J
16D\LL	.	.	4d/ 4a	.	4ff#\)	.	.	.	.	.	.	.	.	.	4dd\	4ff#\
16D\	.	.	.	.	.	.	.	.	.	.	.	.	.	.	.	.
16F#\	.	.	.	.	.	.	.	.	.	.	.	.	.	.	.	.
16A\JJ	.	.	.	.	.	.	.	.	.	.	.	.	.	.	.	.
!	!	!	!LO:LB:g=original	!	!	!	!	!	!	!	!	!	!	!	!	!
=5	=5	=5	=5	=5	=5	=5	=5	=5	=5	=5	=5	=5	=5	=5	=5	=5
!LO:TX:a:t=problem:mixed beam	!	!	!	!	!	!	!LO:N:vis=00	!	!LO:N:vis=00	!	!LO:N:vis=00	!	!LO:N:vis=00	!	!	!
8d\L	.	.	(16A/LL 16f#	.	(16dd\LL	.	0r	.	0r	.	0r	.	0r	.	4f#/	4dd\
.	.	.	16e/)	.	16cc#\	.	.	.	.	.	.	.	.	.	.	.
8d\	.	.	(16A/ 16f#	.	16dd\	.	.	.	.	.	.	.	.	.	.	.
.	.	.	16g/JJ)	.	16ee\JJ)	.	.	.	.	.	.	.	.	.	.	.
!	!	!	!	!	!LO:TX:a:t=problem:mixed beam	!	!	!	!	!	!	!	!	!	!	!
8d\	.	.	8A/L 8f#	.	8dd\L	.	.	.	.	.	.	.	.	.	8f#/L	8dd\L
8D/J	.	.	8A/J 8f#	.	8d/J	.	.	.	.	.	.	.	.	.	8f#/J	8dd\J
=6	=6	=6	=6	=6	=6	=6	=6	=6	=6	=6	=6	=6	=6	=6	=6	=6
!LO:TX:a:t=problem:mixed beam	!	!	!	!	!	!	!	!	!	!	!	!	!	!	!	!
8d\L	.	.	(16dd\LL	.	(16ff#\LL	.	.	.	.	.	.	.	.	.	4dd\	4ff#\
.	.	.	16cc#\	.	16ee\	.	.	.	.	.	.	.	.	.	.	.
8d\	.	.	16dd\	.	16ff#\	.	.	.	.	.	.	.	.	.	.	.
.	.	.	16ee\JJ)	.	16gg\JJ)	.	.	.	.	.	.	.	.	.	.	.
!	!	!	!LO:TX:a:t=problem:mixed beam	!	!LO:TX:a:t=problem:mixed beam	!	!	!	!	!	!	!	!	!	!	!
8d\	.	.	8dd\L	.	8ff#\L	.	.	.	.	.	.	.	.	.	8dd\L	8ff#\L
8D/J	.	.	8d/J	.	8d/J	.	.	.	.	.	.	.	.	.	8dd\J	8ff#\J
!	!	!	!	!	!	!	!	!	!	!	!	!	!	!	!LO:LB:g=original	!LO:LB:g=original
=7	=7	=7	=7	=7	=7	=7	=7	=7	=7	=7	=7	=7	=7	=7	=7	=7
8D\L	.	.	8ff#\L	.	8aa\L	.	.	.	.	.	.	.	.	.	4ff#\	4aa\
8D\	.	.	8ff#\J	.	8aa\J	.	.	.	.	.	.	.	.	.	.	.
8D\	.	.	(16ff#\LL	.	(16aa\LL	.	.	.	.	.	.	.	.	.	8ff#\L	8aa\L
.	.	.	16dd\)	.	16ff#\	.	.	.	.	.	.	.	.	.	.	.
!	!	!	!LO:TX:a:t=problem:nuty nieczytelne, 3 sugeruje triolę g,fis,e	!	!	!	!	!	!	!	!	!	!	!	!	!
8G\J	.	.	(16gg\	.	16bb\	.	.	.	.	.	.	.	.	.	16gg\L	16bb\L
.	.	.	16ee\JJ)	.	16gg\JJ)	.	.	.	.	.	.	.	.	.	16ee\JJ	16gg\JJ
!LO:LB:g=original	!	!	!	!	!	!	!	!	!	!	!	!	!	!	!	!
=8	=8	=8	=8	=8	=8	=8	=8	=8	=8	=8	=8	=8	=8	=8	=8	=8
!	!	!	!	!	!	!	!	!	!	!	!	!	!	!	!LO:TX:a:t=problem:mixed beam	!
4A\	6 4	.	8dd\L	.	8ff#\L	.	.	.	.	.	.	.	.	.	8dd\L	8ff#\L
.	5 3	.	16a\L	.	8ee\J	.	.	.	.	.	.	.	.	.	8a/J	8ee\J
.	.	.	16g\JJ	.	.	.	.	.	.	.	.	.	.	.	.	.
8D\L	.	.	4A/ 4f#	.	4dd\	.	.	.	.	.	.	.	.	.	4f#/	4dd\
16F#\L	.	.	.	.	.	.	.	.	.	.	.	.	.	.	.	.
16A\JJ	.	.	.	.	.	.	.	.	.	.	.	.	.	.	.	.
=9	=9	=9	=9	=9	=9	=9	=9	=9	=9	=9	=9	=9	=9	=9	=9	=9
!LO:TX:a:t=Tutti	!	!	!LO:TX:a:t=Tutti&colon;	!	!LO:TX:a:t=Tutti	!	!	!	!	!	!	!	!	!	!	!
!LO:TX:a:t=problem:mixed beam	!	!	!	!	!	!	!	!	!	!	!	!	!	!	!	!
8d\L	.	.	(16A/LL 16f#	.	16dd\LL	.	4d\	Lau-	4A/	Lau-	16f#\LL	Lau-	(16dd\LL	Lau-	4f#/	4dd\
.	.	.	16e/)	.	16cc#\	.	.	.	.	.	16e\	.	16cc#\	.	.	.
8d\	.	.	(16A/ 16f#	.	16dd\	.	.	.	.	.	16f#\	.	16dd\	.	.	.
.	.	.	16g/JJ)	.	16ee\JJ	.	.	.	.	.	16g\JJ	.	16ee\JJ)	.	.	.
!	!	!	!	!	!LO:TX:a:t=problem:mixed beam	!	!	!	!	!	!	!	!	!	!	!
8d\	.	.	8A/L 8f#	.	8dd\L	.	8d\	-da-	8A/	-da-	8f#\	-da-	8dd\	-da-	8f#/L	8dd\L
8D/J	.	.	8A/J 8f#	.	8d/J	.	8D/	-te	8A/	-te	8f#\	-te	8dd\	-te	8f#/J	8dd\J
=10	=10	=10	=10	=10	=10	=10	=10	=10	=10	=10	=10	=10	=10	=10	=10	=10
!LO:TX:a:t=problem:mixed beam	!	!	!	!	!	!	!	!	!	!	!	!	!	!	!	!
8d\L	.	.	(16dd\LL	.	(16ff#\LL	.	16d\LL	Lau-	4A/	lau-	4a\	lau-	16ff#\LL	lau-	4dd\	4ff#\
.	.	.	16cc#\	.	16ee\	.	16c#\	.	.	.	.	.	16ee\	.	.	.
8d\	.	.	16dd\	.	16ff#\	.	16d\	.	.	.	.	.	16ff#\	.	.	.
.	.	.	16ee\JJ)	.	16gg\JJ)	.	16e\JJ	.	.	.	.	.	16gg\JJ	.	.	.
!	!	!	!LO:TX:a:t=problem:mixed beam	!	!	!	!	!	!	!	!	!	!	!	!	!
8d\	.	.	8dd\L	.	8ff#/L	.	8d\	-da-	8A/	-da-	8a\	-da-	8ff#\	-da-	8dd\L	8ff#\L
8D/J	.	.	8d/J	.	8d/J	.	8D/	-te	8A/	-te	8a\	-te	8ff#\	-te	8dd\J	8ff#\J
!	!	!	!	!	!LO:LB:g=original	!	!	!	!	!	!	!	!	!	!	!
=11	=11	=11	=11	=11	=11	=11	=11	=11	=11	=11	=11	=11	=11	=11	=11	=11
8D\L	.	.	8ff#\L	.	8aa\L	.	8D\L	pu-	4A\	pu-	4a\	pu-	4ff#\	pu-	4ff#\	4aa\
8D\	.	.	8ff#\J	.	8aa\J	.	16F#\L	.	.	.	.	.	.	.	.	.
.	.	.	.	.	.	.	16A\JJ	.	.	.	.	.	.	.	.	.
!	!	!	!LO:LB:g=original	!	!	!	!	!	!	!	!	!	!	!	!	!
8D\	.	.	(16gg\LL	.	(16bb\LL	.	8d\	-e-	8d\	-e-	16b\LL	-e-	8gg\	-e-	4r	4r
.	.	.	16aa\)	.	16ccc#\	.	.	.	.	.	16cc#\JJ	.	.	.	.	.
8D\J	.	.	(16bb\	.	16ddd\	.	8f#\	-ri	8d\	-ri	16dd\LL	-ri	8gg\	-ri	.	.
.	.	.	16gg\JJ)	.	16bb\JJ)	.	.	.	.	.	16b\JJ	.	.	.	.	.
!	!	!	!	!	!	!	!	!	!	!	!	!	!LO:LB:g=original	!	!	!
=12	=12	=12	=12	=12	=12	=12	=12	=12	=12	=12	=12	=12	=12	=12	=12	=12
!LO:TX:a:t=problem:mixed beam	!	!	!	!	!	!	!	!	!	!	!	!	!	!	!	!
8E\L	.	.	8cc#\L	.	8aa\L	.	8e\	Do-	8c#\	Do-	8a\	Do-	8ff#\	Do-	8ff#\L	8aa\L
8AA/J	.	.	8ee\J	.	8gg\J	.	8A\	-mi-	8e\	-mi-	8g\	-mi-	8ee\	-mi-	8ee\J	8gg\J
16D\LL	.	.	4d/ 4a	.	4ff#\	.	4d\	-num	4A/	-num	4f#\	-num	4dd\	-num	4dd\	4ff#\
16D\	.	.	.	.	.	.	.	.	.	.	.	.	.	.	.	.
16F#\	.	.	.	.	.	.	.	.	.	.	.	.	.	.	.	.
16A\JJ	.	.	.	.	.	.	.	.	.	.	.	.	.	.	.	.
!	!	!	!	!	!	!	!LO:LB:g=original	!	!LO:LB:g=original	!	!LO:LB:g=original	!	!	!	!	!
=13	=13	=13	=13	=13	=13	=13	=13	=13	=13	=13	=13	=13	=13	=13	=13	=13
!LO:TX:a:t=problem:mixed beam	!	!	!	!	!	!	!	!	!	!	!	!	!	!	!	!
8d\L	.	.	16A/LL 16f#	.	(16dd\LL	.	4d\	Lau-	4A/	lau-	16f#\LL	lau-	(16dd\LL	lau-	4f#/	4dd\
.	.	.	16e/	.	16cc#\	.	.	.	.	.	16e\	.	16cc#\	.	.	.
8d\	.	.	16A/ 16f#	.	16dd\	.	.	.	.	.	16f#\	.	16dd\	.	.	.
.	.	.	16g/JJ	.	16ee\JJ)	.	.	.	.	.	16g\JJ	.	16ee\JJ)	.	.	.
!	!	!	!	!	!LO:TX:a:t=problem:mixed beam	!	!	!	!	!	!	!	!	!	!	!
8d\	.	.	8A/L 8f#	.	8dd\L	.	8d\	-da-	8A/	-da-	8f#\	-da-	8dd\	-da-	8f#/L	8dd\L
8D/J	.	.	8A/J 8f#	.	8d/J	.	8D/	-te	8A/	-te	8f#\	-te	8dd\	-te	8f#/J	8dd\J
=14	=14	=14	=14	=14	=14	=14	=14	=14	=14	=14	=14	=14	=14	=14	=14	=14
!LO:TX:a:t=problem:mixed beam	!	!	!	!	!	!	!	!	!	!	!	!	!	!	!	!
8d\L	.	.	16dd\LL	.	16ff#\LL	.	4d\	Lau-	16d\LL	lau-	4a\	lau-	16ff#\LL	lau-	4dd\	4ff#\
.	.	.	16cc#\	.	16ee\	.	.	.	16c#\	.	.	.	16ee\	.	.	.
8d\	.	.	16dd\	.	16ff#\	.	.	.	16d\	.	.	.	16ff#\	.	.	.
.	.	.	16ee\JJ	.	16gg\JJ	.	.	.	16e\JJ	.	.	.	16gg\JJ	.	.	.
!	!	!	!LO:TX:a:t=problem:mixed beam	!	!LO:TX:a:t=problem:mixed beam	!	!	!	!	!	!	!	!	!	!	!
8d\	.	.	8dd\L	.	8ff#\L	.	8d\	-da-	8d\	-da-	8a\	-da-	8ff#\	-da-	8dd\L	8ff#\L
8D/J	.	.	8d/J	.	8d/J	.	8D/	-te	8d\	-te	8a\	-te	8ff#\	-te	8dd\J	8ff#\J
=15	=15	=15	=15	=15	=15	=15	=15	=15	=15	=15	=15	=15	=15	=15	=15	=15
!LO:TX:a:t=problem:mixed beam	!	!	!	!	!	!	!	!	!	!	!	!	!	!	!	!
8d\L	.	.	8ff#\L	.	8aa\L	.	(8D\L	no-	8d\	no-	8a\	No-	8ff#\	No-	8ff#\L	8aa\L
8D/J	.	.	8ff#\J	.	8aa\J	.	16F#\L	.	8d\	-men	8a\	-men	8ff#\	-men	8ff#\	8aa\
.	.	.	.	.	.	.	16A\JJ	.	.	.	.	.	.	.	.	.
8D\L	.	.	(16ff#\LL	.	(16aa\LL	.	8d\	.	8d\	{-no	16a\LL	no-	8ff#\	no-	8ff#\	8aa\
.	.	.	16dd\	.	16ff#\	.	.	.	.	.	16f#\JJ	.	.	.	.	.
8G\J	.	.	16gg\	.	16bb\	.	8G\)	-men	8d\	-men}	16b\LL	-men	16gg\LL	-men	8ee\J	8gg\J
.	.	.	16ee\JJ)	.	16gg\JJ)	.	.	.	.	.	16g\JJ	.	16ee\JJ	.	.	.
!LO:LB:g=original	!	!	!	!	!	!	!	!	!	!	!	!	!	!	!LO:LB:g=original	!
=16	=16	=16	=16	=16	=16	=16	=16	=16	=16	=16	=16	=16	=16	=16	=16	=16
!LO:TX:a:t=problem:mixed beam	!	!	!	!	!	!	!	!	!	!	!	!	!	!	!LO:TX:a:t=problem:mixed beam	!
8A\L	6 4	.	8dd\L	.	(8ff#\L	.	8A\	Do-	8A/	Do-	8f#\	Do-	8dd\	Do-	8dd\L	8ff#\L
8AA/J	5 3	.	8cc#\J	.	8ee\J)	.	8A\	-mi-	8A/	-mi-	8e\	-mi-	8cc#\	-mi-	8a/J	8ee\J
16D\LL	.	.	(16dd\LL	.	4dd\	.	4D/	-ni	4A/	-ni	4d\	-ni.	4dd\	-ni	4f#/	4dd\
16E\	.	.	16a\JJ)	.	.	.	.	.	.	.	.	.	.	.	.	.
16F#\	.	.	(16f#/LL	.	.	.	.	.	.	.	.	.	.	.	.	.
16Gn\JJ	.	.	16a/JJ)	.	.	.	.	.	.	.	.	.	.	.	.	.
!	!	!	!	!	!	!	!	!	!LO:LB:g=original	!	!	!	!LO:PB:g=original	!	!	!LO:LB:g=original
*Xtremolo	*	*	*	*	*	*	*	*	*	*	*	*	*	*	*	*
=17	=17	=17	=17	=17	=17	=17	=17	=17	=17	=17	=17	=17	=17	=17	=17	=17
!	!	!	!	!	!	!	!	!	!LO:TX:a:t=Solo	!	!LO:TX:a:t=4	!	!LO:TX:a:t=Solo	!	!LO:TX:a:t=4	!LO:TX:a:t=4
!	!LO:DY:t=piano.	!	!	!LO:DY:t=pia	!	!LO:DY:t=piano.	!	!	!	!	!LO:N:vis=00	!	!	!	!LO:N:vis=00	!LO:N:vis=00
8A\L	p	.	16cc#\LL	p	(16ee\LL	p	4A\	Sit	16c#\LL	Sit	0r	.	16ee\LL	Sit	0r	0r
.	.	.	16b\	.	16dd\	.	.	.	16B\	.	.	.	16dd\	.	.	.
8A\	.	.	16a\	.	16cc#\	.	.	.	16A\	.	.	.	16cc#\	.	.	.
.	.	.	16b\JJ	.	16dd\JJ)	.	.	.	16B\JJ	.	.	.	16dd\JJ	.	.	.
8A\	.	.	16cc#\LL	.	16ee\LL	.	8A\	no-	8c#\	no-	.	.	8ee\	no-	.	.
.	.	.	16cc#\	.	16a\	.	.	.	.	.	.	.	.	.	.	.
!	!	!	!LO:LB:g=original	!	!	!	!	!	!	!	!	!	!	!	!	!
8A\J	6 4	.	16dd\	.	16ff#\	.	8A\	-men	8d\	-men	.	.	8ff#\	-men	.	.
.	.	.	16dd\JJ	.	16a\JJ	.	.	.	.	.	.	.	.	.	.	.
!	!	!	!	!	!LO:LB:g=original	!	!	!	!	!	!	!	!	!	!	!
=18	=18	=18	=18	=18	=18	=18	=18	=18	=18	=18	=18	=18	=18	=18	=18	=18
!LO:TX:a:t=problem:mixed beam	!	!	!	!	!	!	!	!	!	!	!	!	!	!	!	!
8A\L	6 5	.	8ee\L	.	8gg\L	.	8A\	Do-	8e\	Do-	.	.	8gg\	Do-	.	.
8AA/J	.	.	8ee\J	.	8gg\J	.	8A\	-mi-	8e\	-mi-	.	.	8gg\	-mi-	.	.
16r	.	.	4cc#\	.	4ee\	.	4A\	-ni	4c#\	-ni	.	.	4ee\	-ni	.	.
16A\LL	.	.	.	.	.	.	.	.	.	.	.	.	.	.	.	.
16B\	.	.	.	.	.	.	.	.	.	.	.	.	.	.	.	.
16c#\JJ	.	.	.	.	.	.	.	.	.	.	.	.	.	.	.	.
=19	=19	=19	=19	=19	=19	=19	=19	=19	=19	=19	=19	=19	=19	=19	=19	=19
8d\L	.	.	16dd\LL	.	(16ff#\LL	.	8d\	be-	8.d\L	be-	.	.	(16ff#\LL	be-	.	.
.	.	.	16a\	.	16ee\	.	.	.	.	.	.	.	16ee\	.	.	.
8d\	.	.	16f#\	.	16dd\	.	8d\	-ne-	.	.	.	.	16dd\	.	.	.
.	.	.	16a\JJ	.	16ee\JJ)	.	.	.	16c#\Jk	.	.	.	16ee\JJ)	.	.	.
8d\	.	.	8dd\L	.	16ff#\LL	.	8d\	-dic-	16d\LL	.	.	.	8ff#\	.	.	.
.	.	.	.	.	16a\	.	.	.	16e\JJ	.	.	.	.	.	.	.
!	!	!	!	!	!	!	!LO:TX:b:t=Volti subito	!	!	!	!	!	!	!	!	!
8d\J	.	.	8ee\J	.	16gg\	.	8A\	-tum	16f#\LL	-ne-	.	.	8ee\	-ne-	.	.
.	.	.	.	.	16a\JJ	.	.	.	16g\JJ	.	.	.	.	.	.	.
!	!	!	!	!	!	!	!LO:LB:g=original	!	!	!	!	!	!	!	!	!
=20	=20	=20	=20	=20	=20	=20	=20	=20	=20	=20	=20	=20	=20	=20	=20	=20
!LO:TX:a:t=problem:mixed beam	!	!	!	!	!	!	!	!	!	!	!	!	!	!	!	!
8d\L	.	.	16ff#\LL	.	8aa\L	.	8d\	be-	4a\	-dic-	.	.	4ff#\	-dic-	.	.
.	.	.	16a\	.	.	.	.	.	.	.	.	.	.	.	.	.
8D/J	.	.	16ff#\	.	8aa\J	.	8d\	-ne-	.	.	.	.	.	.	.	.
.	.	.	16a\JJ	.	.	.	.	.	.	.	.	.	.	.	.	.
16d\LL	.	.	4dd\	.	4ff#\	.	8d\	-dic-	4f#\	-tum	.	.	4dd\	-tum	.	.
16A\	.	.	.	.	.	.	.	.	.	.	.	.	.	.	.	.
16F#\	.	.	.	.	.	.	8D/	-tum	.	.	.	.	.	.	.	.
16D\JJ	.	.	.	.	.	.	.	.	.	.	.	.	.	.	.	.
=21	=21	=21	=21	=21	=21	=21	=21	=21	=21	=21	=21	=21	=21	=21	=21	=21
!LO:TX:a:t=Tutti	!	!	!	!LO:DY:t=for	!	!LO:DY:t=for	!LO:TX:a:t=8	!	!	!	!	!	!	!	!	!
!	!	!	!	!	!	!	!LO:N:vis=00	!	!	!	!	!	!	!	!	!
16G\LL	.	.	8gg\L	f	8bb\L	f	0r	.	(16g\LL	ex	8g\	ex	8b\	ex	4ee\	4gg\
16F#\	.	.	.	.	.	.	.	.	16f#\)	.	.	.	.	.	.	.
16E\	.	.	8gg\	.	8bb\J	.	.	.	(16e\	hoc	8g\	hoc	8b\	hoc	.	.
16D\JJ	.	.	.	.	.	.	.	.	16d\JJ)	.	.	.	.	.	.	.
!	!	!	!	!	!	!	!	!	!LO:TX:b:4=V.S.	!	!	!	!	!	!	!
8C#/L	.	.	8ee\	.	(16eee\LL	.	.	.	4c#\	nunc	4b\	nunc	4gg\	nunc	8r	8r
.	.	.	.	.	16ddd\	.	.	.	.	.	.	.	.	.	.	.
8C#/J	7	.	8gg\J	.	16ccc#\	.	.	.	.	.	.	.	.	.	8ee\	8gg\
.	.	.	.	.	16bb\JJ)	.	.	.	.	.	.	.	.	.	.	.
!LO:LB:g=original	!	!	!	!	!	!	!	!	!LO:PB:g=original	!	!LO:LB:g=original	!	!LO:LB:g=original	!	!	!
=22	=22	=22	=22	=22	=22	=22	=22	=22	=22	=22	=22	=22	=22	=22	=22	=22
16F#\LL	6	.	8ff#\L	.	8aa\L	.	.	.	16f#\LL	ex	8f#\	ex	8a\	ex	4dd\	4ff#\
16E\	.	.	.	.	.	.	.	.	16e\	.	.	.	.	.	.	.
16D\	7	.	8ff#\	.	8aa\J	.	.	.	16d\	hoc	8f#\	hoc	8a\	hoc	.	.
16C#\JJ	.	.	.	.	.	.	.	.	16c#\JJ	.	.	.	.	.	.	.
8BB/L	7	.	8dd\	.	(16ddd\LL	.	.	.	4B\	nunc	4a\	nunc	4ff#\	nunc	8r	8r
.	.	.	.	.	16ccc#\	.	.	.	.	.	.	.	.	.	.	.
8D/J	.	.	8ff#\J	.	16bb\	.	.	.	.	.	.	.	.	.	8ff#\	8aa\
.	.	.	.	.	16aa\JJ)	.	.	.	.	.	.	.	.	.	.	.
=23	=23	=23	=23	=23	=23	=23	=23	=23	=23	=23	=23	=23	=23	=23	=23	=23
!	!	!LO:DY:t=piano.	!	!	!	!	!	!	!	!	!	!	!	!	!	!
16E/LL	6	p	8ee\L	.	8gg\L	.	.	.	16e\LL	et	4a\	et	4ee\	et	4ee\	4gg\
16D/	.	.	.	.	.	.	.	.	16d\	.	.	.	.	.	.	.
16C#/	.	.	8ee\	.	8gg\J	.	.	.	16c#\	.	.	.	.	.	.	.
16BB/JJ	.	.	.	.	.	.	.	.	16B\JJ	.	.	.	.	.	.	.
!	!	!	!	!	!	!	!	!	!	!	!	!	!	!	!LO:TX:a:t=Probelm&colon; mixed beam	!
8AA/L	7	.	8cc#\	.	(16eee\LL	.	.	.	8c#\	us-	8a\	us-	8ee\	us-	8a/L	8r
.	.	.	.	.	16ccc#\	.	.	.	.	.	.	.	.	.	.	.
8C#/J	.	.	8ee\J	.	16aa\	.	.	.	16e\	-que	16a\	-que	16ee\	-que	8ee\J	8gg\
.	.	.	.	.	16gg\JJ)	.	.	.	16e\	in	16a\	in	16ee\	in	.	.
=24	=24	=24	=24	=24	=24	=24	=24	=24	=24	=24	=24	=24	=24	=24	=24	=24
!	!	!	!LO:TX:a:t=problem:laseczka z prawej strony	!	!	!	!	!	!	!	!	!	!	!	!	!
8D\L	.	.	4a\ 4ee	.	4gg\	.	.	.	8.g\	sae-	8.a\	sae-	8.ee\	sae-	4ee\	4gg\
16F#\L	.	.	.	.	.	.	.	.	.	.	.	.	.	.	.	.
16A\JJ	.	.	.	.	.	.	.	.	16g\	-cu-	16a\	-cu-	16ee\	-cu-	.	.
!LO:TX:a:t=problem:mixed beam	!	!	!	!	!	!	!	!	!	!	!	!	!	!	!	!
8d\L	.	.	8dd\L	.	8ff#\L	.	.	.	4f#\	-lum	4a\	-lum.	4ee\	-lum	4dd\	4ff#\
8D/J	.	.	16ee\L	.	16gg\L	.	.	.	.	.	.	.	.	.	.	.
.	.	.	16ff#\JJ	.	16aa\JJ	.	.	.	.	.	.	.	.	.	.	.
!	!	!	!LO:LB:g=original	!	!LO:LB:g=original	!	!	!	!	!	!	!	!	!	!	!
=25	=25	=25	=25	=25	=25	=25	=25	=25	=25	=25	=25	=25	=25	=25	=25	=25
!	!	!	!	!	!	!	!	!	!LO:TX:a:t=4	!	!LO:TX:b:t=12	!	!LO:TX:a:t=12	!	!	!
!	!	!	!	!	!	!	!LO:LB:g=original	!	!LO:N:vis=00	!	!LO:N:vis=00	!	!LO:N:vis=00	!	!	!
16G\LL	.	.	8gg\L	.	8bb\L	.	0r	.	0r	.	0r	.	0r	.	4f#/	4dd\
16F#\	.	.	.	.	.	.	.	.	.	.	.	.	.	.	.	.
16E\	.	.	8gg\J	.	8bb\J	.	.	.	.	.	.	.	.	.	.	.
16D\JJ	.	.	.	.	.	.	.	.	.	.	.	.	.	.	.	.
8C#/L	7:	.	8ee\L	.	(16eee\LL	.	.	.	.	.	.	.	.	.	8r	8r
.	.	.	.	.	16ddd\	.	.	.	.	.	.	.	.	.	.	.
16r	.	.	8gg\J	.	16ccc#\	.	.	.	.	.	.	.	.	.	8f#/	8dd\
16E/Jk	.	.	.	.	16bb\JJ)	.	.	.	.	.	.	.	.	.	.	.
=26	=26	=26	=26	=26	=26	=26	=26	=26	=26	=26	=26	=26	=26	=26	=26	=26
!	!	!	!LO:TX:a:t=problem:laseczki z prawej strony	!	!	!	!	!	!	!	!	!	!	!	!LO:TX:a:t=problem:mixed beam	!
16F#\LL	6	.	8a\L 8ff#	.	8aa\L	.	.	.	.	.	.	.	.	.	8f#/L	8dd\L
16E\	.	.	.	.	.	.	.	.	.	.	.	.	.	.	.	.
16D\	.	.	8a\J 8ff#	.	8aa\J	.	.	.	.	.	.	.	.	.	8dd\J	8ff#\J
16C#\JJ	.	.	.	.	.	.	.	.	.	.	.	.	.	.	.	.
8BB/L	7	.	8dd\L	.	(16ddd\LL	.	.	.	.	.	.	.	.	.	4ff#\	4aa\
.	.	.	.	.	16ccc#\	.	.	.	.	.	.	.	.	.	.	.
16r	.	.	8ff#\J	.	16bb\	.	.	.	.	.	.	.	.	.	.	.
16D/Jk	#	.	.	.	16aa\JJ)	.	.	.	.	.	.	.	.	.	.	.
=27	=27	=27	=27	=27	=27	=27	=27	=27	=27	=27	=27	=27	=27	=27	=27	=27
!LO:TX:a:t=problem:mixed beam	!	!	!	!	!	!	!	!	!	!	!	!	!	!	!	!
8D\L	.	.	(16ff#\LL	.	(16aa\LL	.	.	.	.	.	.	.	.	.	8ff#\L	8aa\L
.	.	.	16dd\	.	16ff#\	.	.	.	.	.	.	.	.	.	.	.
8G\	.	.	16gg\	.	16bb\	.	.	.	.	.	.	.	.	.	16gg\L	16bb\L
.	.	.	16ee\JJ)	.	16gg\JJ)	.	.	.	.	.	.	.	.	.	16ee\JJ	16gg\JJ
!	!	!	!	!	!	!	!	!	!	!	!	!	!	!	!LO:TX:a:t=problem:mixed beam	!
8A\	.	.	8dd\L	.	8ff#\L	.	.	.	.	.	.	.	.	.	8dd\L	8ff#\L
8AA/J	.	.	8cc#\J	.	8ee\J	.	.	.	.	.	.	.	.	.	8a/J	8ee\J
!LO:LB:g=original	!	!	!	!	!	!	!	!	!	!	!	!	!	!	!	!
=28	=28	=28	=28	=28	=28	=28	=28	=28	=28	=28	=28	=28	=28	=28	=28	=28
8D/L	.	.	8A/L 8f#	.	8dd\L	.	.	.	.	.	.	.	.	.	8f#/L	8dd\L
8FF#/J	.	.	8A/J 8f#	.	8dd\J	.	.	.	.	.	.	.	.	.	8f#/J	8dd\J
4DD/	.	.	4A/ 4f#	.	4dd\	.	.	.	.	.	.	.	.	.	4f#/	4dd\
!	!	!	!	!	!	!	!	!	!	!	!	!	!	!	!LO:LB:g=original	!
=29	=29	=29	=29	=29	=29	=29	=29	=29	=29	=29	=29	=29	=29	=29	=29	=29
!	!	!	!LO:TX:a:t=problem:mixed beam	!	!	!	!LO:TX:a:t=Solo	!	!LO:TX:a:t=Solo	!	!	!	!	!	!LO:TX:a:t=8	!LO:TX:a:t=8
!	!	!	!	!LO:DY:t=pia	!	!LO:DY:t=piano.	!	!	!	!	!LO:N:vis=00	!	!LO:N:vis=00	!	!LO:N:vis=00	!LO:N:vis=00
16D\LL	.	p	8d/L 8a	p	8a\L 8ff#	p	16D\LL	quis	8f#\	ex-	0r	.	0r	.	0r	0r
16E\	.	.	.	.	.	.	16E\JJ	.	.	.	.	.	.	.	.	.
16F#\	.	.	16r	.	16r	.	16F#\	si-	8f#\	-cel-	.	.	.	.	.	.
!	!	!	!LO:N:vis=8	!	!	!	!	!	!	!	!	!	!	!	!	!
16G#X\JJ	.	.	16dd\Jk	.	16ee\Jk	.	16G#X\	-cut	.	.	.	.	.	.	.	.
16A\LL	.	.	8cc#\L	.	8ee\L	.	16A\	Do-	4e\	-sus	.	.	.	.	.	.
16B\	.	.	.	.	.	.	16B\	-mi-	.	.	.	.	.	.	.	.
16c#\	.	.	16r	.	16r	.	8c#\	-nus	.	.	.	.	.	.	.	.
16A\JJ	.	.	16e\Jk 16cc#	.	16ee\Jk	.	.	.	.	.	.	.	.	.	.	.
=30	=30	=30	=30	=30	=30	=30	=30	=30	=30	=30	=30	=30	=30	=30	=30	=30
16E\LL	7 #	.	8b\L	.	8dd\L	.	16E\LL	De-	8d\	su-	.	.	.	.	.	.
16F#\	.	.	.	.	.	.	16F#\JJ	.	.	.	.	.	.	.	.	.
16G#X\	.	.	16r	.	16r	.	16G#X\LL	-us	8d\	-per	.	.	.	.	.	.
!	!	!	!LO:N:vis=8	!	!	!	!	!	!	!	!	!	!	!	!	!
16E\JJ	.	.	16b\Jk	.	16dd\Jk	.	16E\JJ	.	.	.	.	.	.	.	.	.
16A\LL	.	.	8e/L 8a	.	8cc#\L	.	8A\	no-	8c#\	om-	.	.	.	.	.	.
16E\	.	.	.	.	.	.	.	.	.	.	.	.	.	.	.	.
16C#\	.	.	16r	.	16r	.	8A\	-ster	8c#\	-nes	.	.	.	.	.	.
16AA\JJ	.	.	16e/Jk 16a	.	16cc#\Jk	.	.	.	.	.	.	.	.	.	.	.
!	!	!	!	!	!	!	!LO:LB:g=original	!	!	!	!	!	!	!	!	!
=31	=31	=31	=31	=31	=31	=31	=31	=31	=31	=31	=31	=31	=31	=31	=31	=31
8D\L	6_	.	8f#/	.	(16b\LL	.	8d\	qui	16B\LL	om-	.	.	.	.	.	.
.	.	.	.	.	16cc#\	.	.	.	16c#\JJ	.	.	.	.	.	.	.
8D\	.	.	4f#/	.	16dd\	.	8d\	in	16d\LL	-nes	.	.	.	.	.	.
.	.	.	.	.	16ee\JJ)	.	.	.	16e\JJ	.	.	.	.	.	.	.
!	!	!	!	!	!LO:LB:g=original	!	!	!	!LO:LB:g=original	!	!	!	!	!	!	!
8D\	.	.	.	.	(16ff#\LL	.	8d\	al-	16f#\LL	gen-	.	.	.	.	.	.
.	.	.	.	.	16dd\	.	.	.	16d\JJ	.	.	.	.	.	.	.
!LO:TX:b:t=Volti Subito	!	!	!	!	!	!	!	!	!	!	!	!	!	!	!	!
8D#X\J	.	.	8f#/	.	16b\	.	16d\LL	-tis	16B\LL	-tes	.	.	.	.	.	.
.	.	.	.	.	16a\JJ)	.	16d#X\JJ	.	16A\JJ	.	.	.	.	.	.	.
!LO:PB:g=original	!	!	!LO:LB:g=original	!	!	!	!	!	!	!	!	!	!	!	!	!
=32	=32	=32	=32	=32	=32	=32	=32	=32	=32	=32	=32	=32	=32	=32	=32	=32
!	!	!LO:DY:t=piano	!	!	!	!	!	!	!	!	!	!	!	!	!	!
16E\LL	4	p	(4c#/	.	(4a/	.	16e\LL	ha-	8A/	Do-	.	.	.	.	.	.
16D#X\	.	.	.	.	.	.	16d#X\JJ	.	.	.	.	.	.	.	.	.
16E\	.	.	.	.	.	.	16e\LL	-bi-	8A/	-mi-	.	.	.	.	.	.
16D#\JJ	.	.	.	.	.	.	16d#\JJ	.	.	.	.	.	.	.	.	.
16E\LL	3	.	4B/)	.	4g#X/)	.	4e\	-tat	4G#X/	-nus	.	.	.	.	.	.
16D#\	.	.	.	.	.	.	.	.	.	.	.	.	.	.	.	.
16E\	.	.	.	.	.	.	.	.	.	.	.	.	.	.	.	.
16D#\JJ	.	.	.	.	.	.	.	.	.	.	.	.	.	.	.	.
=33	=33	=33	=33	=33	=33	=33	=33	=33	=33	=33	=33	=33	=33	=33	=33	=33
!	!	!	!	!	!	!	!	!	!	!	!LO:N:vis=00	!	!LO:N:vis=00	!	!LO:N:vis=00	!LO:N:vis=00
8E\	#	.	(16b\LL	.	(16dd\LL	.	8E\	et	(16d\LL	et	0r	.	0r	.	0r	0r
.	.	.	16cc#\	.	16ee\	.	.	.	16e\	.	.	.	.	.	.	.
8r	.	.	16b\	.	16dd\	.	8F#\	hu-	16d\	.	.	.	.	.	.	.
.	.	.	16a\JJ)	.	16cc#\JJ)	.	.	.	16c#\JJ)	.	.	.	.	.	.	.
16E\LL	#	.	8g#X/	.	8b\	.	16E\LL	-mi-	8B\	su-	.	.	.	.	.	.
16F#\	.	.	.	.	.	.	16F#\JJ	.	.	.	.	.	.	.	.	.
16G#X\	.	.	8r	.	8r	.	16G#X\	-li-	8B\	-per-	.	.	.	.	.	.
16E\JJ	.	.	.	.	.	.	16E\	-a	.	.	.	.	.	.	.	.
=34	=34	=34	=34	=34	=34	=34	=34	=34	=34	=34	=34	=34	=34	=34	=34	=34
8A\	.	.	(16cc#\LL	.	(16ee\LL	.	16A\	res-	(16e\LL	-et	.	.	.	.	.	.
.	.	.	16dd\	.	16ff#\	.	16A\	-pi-	16f#\	.	.	.	.	.	.	.
8r	.	.	16cc#\	.	16ee\	.	16A\	-cit	16e\	.	.	.	.	.	.	.
.	.	.	16b\JJ)	.	16dd\JJ)	.	16A\	in	16d\JJ)	.	.	.	.	.	.	.
16A\LL	.	.	8a/	.	8cc#\	.	8A\	Cae-	8c#\	su-	.	.	.	.	.	.
16B\	.	.	.	.	.	.	.	.	.	.	.	.	.	.	.	.
16c#\	.	.	8r	.	8r	.	8A\	-lo	8c#\	-per	.	.	.	.	.	.
16A\JJ	.	.	.	.	.	.	.	.	.	.	.	.	.	.	.	.
!	!	!	!	!	!	!	!LO:LB:g=original	!	!	!	!	!	!	!	!	!
=35	=35	=35	=35	=35	=35	=35	=35	=35	=35	=35	=35	=35	=35	=35	=35	=35
*tremolo	*	*	*	*	*	*	*	*	*	*	*	*	*	*	*	*
8E\L	.	.	(16b\LL	.	(16dd\LL	.	8E\	et	(16d\LL	cae-	.	.	.	.	.	.
.	.	.	16cc#\	.	16ee\	.	.	.	16e\	.	.	.	.	.	.	.
8E\	.	.	16b\	.	16dd\	.	8E\	in	16d\	.	.	.	.	.	.	.
.	.	.	16a\JJ)	.	16cc#\JJ)	.	.	.	16c#\JJ)	.	.	.	.	.	.	.
8E\	.	.	16g#X'/LL	.	16b'\LL	.	8E\	ter-	8B\	.	.	.	.	.	.	.
.	.	.	(16g#/	.	16b'\	.	.	.	.	.	.	.	.	.	.	.
8E\J	.	.	16a/	.	(16cc#\	.	8E\	-ra	16c#\LL	-los	.	.	.	.	.	.
.	.	.	16b/JJ)	.	16dd\JJ)	.	.	.	16d\JJ	.	.	.	.	.	.	.
!	!	!	!	!	!	!	!	!	!LO:LB:g=original	!	!	!	!	!	!	!
*Xtremolo	*	*	*	*	*	*	*	*	*	*	*	*	*	*	*	*
=36	=36	=36	=36	=36	=36	=36	=36	=36	=36	=36	=36	=36	=36	=36	=36	=36
!LO:TX:a:t=problem:mixed beam	!	!	!	!	!	!	!	!	!	!	!	!	!	!	!	!
8A\L	.	.	(16cc#\LL	.	(16ee\LL	.	8A\	et	16e\LL	Glo-	.	.	.	.	.	.
.	.	.	16dd\	.	16ff#\	.	.	.	16f#\JJ	.	.	.	.	.	.	.
8A\	.	.	16cc#\	.	16ee\	.	8A\	in	16e\	-ri-	.	.	.	.	.	.
.	.	.	16b\JJ)	.	16dd\JJ)	.	.	.	16d\	-a	.	.	.	.	.	.
8A\	.	.	(16a\LL	.	16cc#`\LL	.	8A\	ter-	8c#\	e-	.	.	.	.	.	.
.	.	.	16a\	.	(16cc#\	.	.	.	.	.	.	.	.	.	.	.
8AA/J	.	.	16b\	.	16dd\	.	8AA/	-ra	8c#\	-jus	.	.	.	.	.	.
.	.	.	16cc#\JJ)	.	16ee\JJ)	.	.	.	.	.	.	.	.	.	.	.
=37	=37	=37	=37	=37	=37	=37	=37	=37	=37	=37	=37	=37	=37	=37	=37	=37
!LO:TX:a:t=Tutti	!	!	!	!LO:DY:t=for	!	!LO:DY:t=Forte.	!	!	!	!	!	!	!LO:TX:a:t=Tutti	!	!	!
8D\L	.	.	8d/L 8a	f	(16ff#\LL	f	8D/	sus-	8d\	sus-	8f#\	Sus-	8a\	sus-	4dd\	4ff#\
.	.	.	.	.	16gg#X\	.	.	.	.	.	.	.	.	.	.	.
8D\	.	.	8d/J 8a	.	16aa\	.	8D/	-ci-	8d\	-ci-	8f#\	-ci-	8a\	-ci-	.	.
.	.	.	.	.	16ff#\JJ)	.	.	.	.	.	.	.	.	.	.	.
8E\	#	.	8e/L 8b	.	(16gg#\LL	.	8E\	-tans	8e\	-tans	8g#X\	-tans	8b\	-tans	4a/	4ee\
.	.	.	.	.	16aa\	.	.	.	.	.	.	.	.	.	.	.
!	!	!	!	!	!	!	!	!	!	!	!LO:TX:b:t=Volti subito	!	!	!	!	!
8E\J	.	.	8e/J 8b	.	16bb\	.	8E\	a	8e\	a	8g#\	a	8b\	a	.	.
.	.	.	.	.	16gg#\JJ)	.	.	.	.	.	.	.	.	.	.	.
!	!	!	!LO:LB:g=original	!	!LO:LB:g=original	!	!	!	!	!	!LO:PB:g=original	!	!LO:LB:g=original	!	!	!LO:LB:g=original
=38	=38	=38	=38	=38	=38	=38	=38	=38	=38	=38	=38	=38	=38	=38	=38	=38
*	*	*	*^	*	*	*	*	*	*	*	*	*	*	*	*	*
8F#\L	5	.	8cc#/L	8a\L	.	(16aa\LL	.	8F#\	ter-	8f#\	ter-	8a\	ter-	8cc#\	ter-	4a/	4ee\
.	.	.	.	.	.	16bb\	.	.	.	.	.	.	.	.	.	.	.
8F#\	.	.	8cc#/J	8a\J	.	16ccc#\	.	8F#\	-ra	8f#\	-ra	8a\	-ra	8cc#\	-ra	.	.
.	.	.	.	.	.	16aa\JJ)	.	.	.	.	.	.	.	.	.	.	.
*	*	*	*v	*v	*	*	*	*	*	*	*	*	*	*	*	*	*
8G#X\	5	.	8e/L 8b	.	(16bb\LL	.	16G#X\	in-	16e\	in-	16b\	in-	16ee\	in-	4r	4r
.	.	.	.	.	16ccc#\	.	16G#\	-o-	16e\	-o-	16b\	-o-	16ee\	-o-	.	.
8G#\J	.	.	8e/J 8b	.	16ddd\	.	8G#\	-pem	8e\	-pem	8b\	-pem	8ee\	-pem	.	.
.	.	.	.	.	16bb\JJ)	.	.	.	.	.	.	.	.	.	.	.
!LO:LB:g=original	!	!	!	!	!	!	!LO:LB:g=original	!	!	!	!	!	!	!	!	!
=39	=39	=39	=39	=39	=39	=39	=39	=39	=39	=39	=39	=39	=39	=39	=39	=39
*	*	*	*^	*	*	*	*	*	*	*	*	*	*	*	*	*
8A\L	.	.	16ee/KL	16ee\KL	.	(16ccc#\LL	.	8A\	et	16c#\LL	et	8e\	et	8b\	et	4a/	4ee\
.	.	.	8ee/	8ee\	.	16eee\	.	.	.	16e\JJ	.	.	.	.	.	.	.
8c#\J	.	.	.	.	.	16ccc#\	.	8c#\	de	16c#\LL	de	8e\	de	8ee\	de	.	.
.	.	.	8ee/	8ee\	.	16aa\JJ)	.	.	.	16A\JJ	.	.	.	.	.	.	.
8E\L	#	.	.	.	.	16gg#X\LL	.	8E\	ster-	16G#X/LL	ster-	16e\	ster-	8b\	ster-	4r	4r
.	.	.	8ee/	8ee\	.	16aa\	.	.	.	16A/JJ	.	16e\	-co-	.	.	.	.
!	!	!	!	!	!	!	!	!	!	!LO:TX:a:t=SIC:t=-co-	!	!	!	!	!	!	!
8G#X\J	.	.	.	.	.	16bb\	.	16E\	-co-	16B\	-ca-	8e\	-re	16b\	-co-	.	.
.	.	.	16ee/Jk	16ee\Jk	.	16ddd\JJ	.	16G#X\	-re	16d\	-re	.	.	16dd\	-re	.	.
*	*	*	*v	*v	*	*	*	*	*	*	*	*	*	*	*	*	*
!	!	!	!	!	!	!	!	!	!LO:LB:g=original	!	!	!	!	!	!	!
=40	=40	=40	=40	=40	=40	=40	=40	=40	=40	=40	=40	=40	=40	=40	=40	=40
8A\L	.	.	16e/KL 16ee	.	16ccc#\LL	.	8A\	e-	16c#\LL	e-	8e\	e-	16cc#\	e-	4a/	4ee\
.	.	.	8e/ 8ee	.	16eee\	.	.	.	16e\JJ	.	.	.	16ee\	-ri-	.	.
8c#\J	.	.	.	.	16ccc#\	.	16c#\	-ri-	16c#\	-ri-	16a\	-ri-	8ee\	-gens	.	.
!	!	!	!	!	!	!	!	!	!	!	!LO:TX:a:t=SIC:t=gens	!	!	!	!	!
.	.	.	8e/ 8ee	.	16aa\JJ	.	16c#\	-gens	16A/	-gens	16a\	-ens	.	.	.	.
8E\L	.	.	.	.	16gg#X\LL	.	16e\	pau-	16G#X/LL	pau-	16g#X\	pau-	16b\	pau-	4r	4r
.	.	.	8e/ 8ee	.	16aa\	.	16E\	-pe-	16A/JJ	.	16g#\	-pe-	16dd\	-pe-	.	.
8G#X\J	.	.	.	.	16bb\	.	8E\	-rem	16B\	-pe-	8g#\	-rem	8dd\	-rem	.	.
.	.	.	16e/Jk 16ee	.	16ddd\JJ	.	.	.	16d\	-rem	.	.	.	.	.	.
!	!	!	!	!	!	!	!	!	!	!	!	!	!LO:LB:g=original	!	!	!
=41	=41	=41	=41	=41	=41	=41	=41	=41	=41	=41	=41	=41	=41	=41	=41	=41
!	!	!	!	!	!	!	!	!	!	!	!LO:TX:a:t=Solo	!	!LO:TX:a:t=10	!	!LO:TX:a:t=10	!LO:TX:a:t=10
!	!	!LO:DY:t=piano	!	!LO:DY:t=pia	!	!LO:DY:t=piano	!	!	!	!	!	!	!LO:N:vis=00	!	!LO:N:vis=00	!LO:N:vis=00
4A\	.	p	8cc#\ 8ee	p	8ccc#\L	p	16A\	pau-	16c#\	pau-	16a\	ut	0r	.	0r	0r
.	.	.	.	.	.	.	16A\	-pe-	16c#\	-pe-	16cc#\	col-	.	.	.	.
.	.	.	16a/LL	.	16aa\L	.	8A\	-rem	8c#\	-rem	16a\	-lo-	.	.	.	.
.	.	.	16g/JJ	.	16gg\JJ	.	.	.	.	.	16g#X\	-cet	.	.	.	.
!	!	!	!	!	!	!	!	!	!	!	!LO:LB:g=original	!	!	!	!	!
4r	.	.	8f#/L	.	8ff#\L	.	4r	.	4r	.	8f#\	e-	.	.	.	.
.	.	.	8e/J	.	8ee\J	.	.	.	.	.	8e\	-um	.	.	.	.
=42	=42	=42	=42	=42	=42	=42	=42	=42	=42	=42	=42	=42	=42	=42	=42	=42
*tremolo	*	*	*	*	*	*	*	*	*	*	*	*	*	*	*	*
!	!	!	!	!	!	!	!	!	!LO:TX:a:t=9	!	!	!	!	!	!	!
!	!	!	!	!	!	!	!	!	!LO:N:vis=00	!	!	!	!	!	!	!
8A\L	4# 2	.	(16f#/LL	.	4dd#X\	.	16A\	ut	0r	.	8d#X\	cum	.	.	.	.
.	.	.	16b/	.	.	.	16A\	col-	.	.	.	.	.	.	.	.
8A\	.	.	16a/	.	.	.	16A\	-lo-	.	.	8d#\	prin-	.	.	.	.
.	.	.	16b/JJ)	.	.	.	16A\	-cet	.	.	.	.	.	.	.	.
!	!	!	!	!	!	!	!LO:LB:g=original	!	!	!	!	!	!	!	!	!
8A\	.	.	(16f#/LL	.	(16dd#\LL	.	8A\	e-	.	.	16d#/	-ci-	.	.	.	.
.	.	.	16b/	.	16b\	.	.	.	.	.	16B/	-pi-	.	.	.	.
8A\J	.	.	16a/	.	16ff#\	.	8A\	-um	.	.	8f#\	-bus	.	.	.	.
.	.	.	16b/JJ)	.	16dd#\JJ)	.	.	.	.	.	.	.	.	.	.	.
=43	=43	=43	=43	=43	=43	=43	=43	=43	=43	=43	=43	=43	=43	=43	=43	=43
8Gn\L	6	.	(16e/LL	.	4ee\	.	8G\	cum	.	.	8e\	cum	.	.	.	.
.	.	.	16b/	.	.	.	.	.	.	.	.	.	.	.	.	.
8G\	.	.	16gn/	.	.	.	8G\	prin-	.	.	8e\	prin-	.	.	.	.
.	.	.	16b/JJ)	.	.	.	.	.	.	.	.	.	.	.	.	.
8G\	.	.	(16e/LL	.	(16ee\LL	.	16G\	-ci-	.	.	16e\	-ci-	.	.	.	.
.	.	.	16b/	.	16b\	.	16G\	-pi-	.	.	16B/	-pi-	.	.	.	.
8G\J	.	.	16g/	.	(16gg\)	.	8G\	-bus	.	.	8f#\	-bus	.	.	.	.
.	.	.	16b/JJ)	.	16ee\JJ)	.	.	.	.	.	.	.	.	.	.	.
!	!	!	!	!	!LO:LB:g=original	!	!	!	!	!	!	!	!	!	!	!
=44	=44	=44	=44	=44	=44	=44	=44	=44	=44	=44	=44	=44	=44	=44	=44	=44
8D#X\L	6	.	16b\LL	.	4ff#\	.	4D#X/	po-	.	.	4f#\	po-	.	.	.	.
.	.	.	16b\J	.	.	.	.	.	.	.	.	.	.	.	.	.
8D#\	.	.	8b\J	.	.	.	.	.	.	.	.	.	.	.	.	.
8D#\	.	.	8b\L	.	(16ff#\LL	.	8D#/	-pu-	.	.	8f#\	-pu-	.	.	.	.
.	.	.	.	.	16b\)	.	.	.	.	.	.	.	.	.	.	.
8D#\J	.	.	8ff#\J	.	(16bb\	.	8D#/	-li	.	.	16b\LL	-li	.	.	.	.
.	.	.	.	.	16aa\JJ)	.	.	.	.	.	16a\JJ	.	.	.	.	.
=45	=45	=45	=45	=45	=45	=45	=45	=45	=45	=45	=45	=45	=45	=45	=45	=45
!LO:TX:a:t=problem:mixed beam	!	!	!	!	!	!	!	!	!	!	!	!	!LO:N:vis=00	!	!LO:N:vis=00	!LO:N:vis=00
8E\L	4: 2:	.	(4ff#\	.	4aa\	.	8E\L	su-	.	.	(4a\	sui	0r	.	0r	0r
8BB/J	.	.	.	.	.	.	16G\L	.	.	.	.	.	.	.	.	.
.	.	.	.	.	.	.	16B\JJ	.	.	.	.	.	.	.	.	.
16E\LL	3n	.	8ee\)	.	(16gg\LL	.	4e\	-i	.	.	8g\)	.	.	.	.	.
16D#X\	3	.	.	.	16ff#\	.	.	.	.	.	.	.	.	.	.	.
16E\	3	.	8r	.	16gg\	.	.	.	.	.	8r	.	.	.	.	.
16F#\JJ	3	.	.	.	16aa\JJ)	.	.	.	.	.	.	.	.	.	.	.
!	!	!	!LO:LB:g=original	!	!	!	!	!	!	!	!	!	!	!	!	!
=46	=46	=46	=46	=46	=46	=46	=46	=46	=46	=46	=46	=46	=46	=46	=46	=46
!	!	!	!	!	!	!	!	!	!LO:N:vis=00	!	!	!	!	!	!	!
4G\	.	.	8b/L	.	8bb\L	.	2r	.	0r	.	8b\	qui	.	.	.	.
.	.	.	16g/L	.	16gg\L	.	.	.	.	.	16g\	ha-	.	.	.	.
.	.	.	16f#/JJ	.	16ff#\JJ	.	.	.	.	.	16f#\	-bi-	.	.	.	.
!	!	!	!	!	!	!	!	!	!	!	!LO:LB:g=original	!	!	!	!	!
4r	.	.	8e/L	.	8ee\L	.	.	.	.	.	8e\	-ta-	.	.	.	.
.	.	.	8d/J	.	8dd\J	.	.	.	.	.	8d\	-re	.	.	.	.
=47	=47	=47	=47	=47	=47	=47	=47	=47	=47	=47	=47	=47	=47	=47	=47	=47
8G\L	4 2	.	(16e/LL	.	4cc#\	.	8G\	qui	.	.	8c#X/	fa-	.	.	.	.
.	.	.	16a/	.	.	.	.	.	.	.	.	.	.	.	.	.
8G\	.	.	16g/	.	.	.	16G\	ha-	.	.	8c#/	-cit	.	.	.	.
.	.	.	16a/JJ)	.	.	.	16G\	-bi-	.	.	.	.	.	.	.	.
!	!	!	!	!	!	!	!LO:LB:g=original	!	!	!	!	!	!	!	!	!
8G\	.	.	(16e/LL	.	(16cc#\LL	.	8G\	-ta-	.	.	16c#\	ste-	.	.	.	.
.	.	.	16a/	.	16a\)	.	.	.	.	.	16e\	-ri-	.	.	.	.
8G\J	.	.	16g/	.	(16ee\	.	8G\	-re	.	.	16a\	-lem	.	.	.	.
.	.	.	16a/JJ)	.	16cc#\JJ)	.	.	.	.	.	16cc#\	in	.	.	.	.
=48	=48	=48	=48	=48	=48	=48	=48	=48	=48	=48	=48	=48	=48	=48	=48	=48
8F#\L	6	.	(16d/LL	.	4dd\	.	8F#\	fa-	.	.	8ee\	do-	.	.	.	.
.	.	.	16a/	.	.	.	.	.	.	.	.	.	.	.	.	.
8F#\	.	.	16f#/	.	.	.	8F#\	-cit	.	.	8dd\	-mo	.	.	.	.
.	.	.	16a/JJ)	.	.	.	.	.	.	.	.	.	.	.	.	.
8F#\	.	.	(16d/LL	.	(16dd\LL	.	16F#\	ste-	.	.	16dd\LL	Ma-	.	.	.	.
.	.	.	16a/	.	16a\)	.	16F#\	-ri-	.	.	16a\JJ	.	.	.	.	.
8F#\J	.	.	16f#/	.	(16ff#\	.	16F#\	-lem	.	.	16f#\LL	-trem	.	.	.	.
.	.	.	16a/JJ)	.	16dd\JJ)	.	16d\	in	.	.	16d\JJ	.	.	.	.	.
!LO:LB:g=original	!	!	!	!	!	!	!	!	!	!	!	!	!	!	!	!
=49	=49	=49	=49	=49	=49	=49	=49	=49	=49	=49	=49	=49	=49	=49	=49	=49
!	!	!	!	!	!	!	!	!	!	!	!	!	!LO:N:vis=0	!	!LO:N:vis=0	!LO:N:vis=0
8C#X/L	.	.	16e/LL	.	4ee\	.	16c#\	do-	.	.	16e\LL	fi-	1r	.	1r	1r
.	.	.	16cc#/	.	.	.	16A\	-mo-	.	.	16c#\JJ	.	.	.	.	.
8C#/	.	.	16a/	.	.	.	16A\	-fi-	.	.	16A/LL	-li-	.	.	.	.
.	.	.	16cc#/JJ	.	.	.	16A\	-li-	.	.	16c#/JJ	.	.	.	.	.
8C#/	.	.	8e\L 8cc#	.	(16ee\LL	.	8A\	-o-	.	.	8e\	-o-	.	.	.	.
.	.	.	.	.	16a\)	.	.	.	.	.	.	.	.	.	.	.
8C#/J	.	.	8ee\J	.	(16aa\	.	16c#\	-rum	.	.	16a\	-rum	.	.	.	.
.	.	.	.	.	16gg\JJ)	.	16c#\	lae-	.	.	16g\	lae-	.	.	.	.
=50	=50	=50	=50	=50	=50	=50	=50	=50	=50	=50	=50	=50	=50	=50	=50	=50
!	!	!	!	!	!	!	!LO:TX:a:t=problem:mixed beam	!	!	!	!	!	!	!	!	!
8D/L	4 2	.	(16ee\LL	.	4gg\	.	8d\L	-tan-	2r	.	4g\	-tan-	.	.	.	.
.	.	.	16a\	.	.	.	.	.	.	.	.	.	.	.	.	.
8AA/J	.	.	16b\	.	.	.	8D/J	.	.	.	.	.	.	.	.	.
.	.	.	16cc#\JJ)	.	.	.	.	.	.	.	.	.	.	.	.	.
4D\	.	.	(16dd\LL	.	(16ff#\LL	.	4D/	-tem	.	.	8f#\	-tem,	.	.	.	.
.	.	.	16cc#\	.	16ee\	.	.	.	.	.	.	.	.	.	.	.
.	.	.	16dd\	.	16ff#\	.	.	.	.	.	8r	.	.	.	.	.
.	.	.	16ee\JJ)	.	16gg\JJ)	.	.	.	.	.	.	.	.	.	.	.
!	!	!	!	!	!	!	!LO:LB:g=original	!	!	!	!LO:LB:g=original	!	!	!	!	!
=51	=51	=51	=51	=51	=51	=51	=51	=51	=51	=51	=51	=51	=51	=51	=51	=51
!LO:TX:b:t=Tutti	!	!	!	!LO:DY:t=for	!	!LO:DY:t=for.	!	!	!	!	!	!	!	!	!	!
16D\LL	5 3	.	8ff#\L	f	8aa\L	f	8d\	qui	8d\	qui	8a\	qui	8ff#\	qui	8ff#\L	8aa\L
16D\	.	.	.	.	.	.	.	.	.	.	.	.	.	.	.	.
16D\	.	.	8ff#\J	.	8aa\J	.	16d\	ha-	16d\	ha-	16a\	ha-	16ff#\	ha-	8ff#\	8aa\J
16D\	.	.	.	.	.	.	16d\	-bi-	16d\	-bi-	16a\	-bi-	16ff#\	-bi-	.	.
16D\	7	.	(16gg\LL	.	16bb\LL	.	8d\	-ta-	8d\	-ta-	8b\	-ta-	8gg\	-ta-	8gg\	8bb\L
16D\	.	.	16aa\	.	16ccc#\	.	.	.	.	.	.	.	.	.	.	.
16D\	.	.	16bb\	.	16ddd\	.	8d\	-re	8d\	-re	8b\	-re	8gg\	-re	8gg\J	8bb\J
16D\JJ	.	.	16gg\JJ)	.	16bb\JJ	.	.	.	.	.	.	.	.	.	.	.
!	!	!	!LO:LB:g=original	!	!LO:LB:g=original	!	!	!	!	!	!	!	!	!	!	!
*Xtremolo	*	*	*	*	*	*	*	*	*	*	*	*	*	*	*	*
=52	=52	=52	=52	=52	=52	=52	=52	=52	=52	=52	=52	=52	=52	=52	=52	=52
!	!	!	!	!	!	!	!	!	!	!	!	!	!	!	!LO:TX:a:t=problem:mixed beam	!
16D\LL	5 3	.	8ff#\L	.	8aa\L	.	8d\	fa-	8d\	fa-	8a\	fa-	8ff#\	fa-	8ff#\L	8aa\L
16D\	.	.	.	.	.	.	.	.	.	.	.	.	.	.	.	.
16D\	.	.	8ff#\J	.	8aa\J	.	8D/	-cit	8d\	-cit	8a\	-cit	8ff#\	-cit	8ff#\J	8aa\J
16D\JJ	.	.	.	.	.	.	.	.	.	.	.	.	.	.	.	.
!	!	!	!	!	!	!	!	!	!LO:LB:g=original	!	!	!	!	!	!	!
16A\LL	7	.	(16ee\LL	.	16gg\LL	.	16A\	ste-	16c#\	ste-	16g\	ste-	16ee\	ste-	8ee\L	4gg\
16A\	.	.	16cc#\	.	16ee\	.	16A\	-ri-	16c#\	-ri-	16e\	-ri-	16cc#\	-ri-	.	.
16A\	.	.	16dd\	.	16ff#\	.	16A\	-lem	16c#\	-lem	16f#\	-lem	16dd\	-lem	8a/J	.
16A\JJ	.	.	16ee\JJ)	.	16gg\JJ	.	16A\	in	16c#\	in	16g\	in	16ee\	in	.	.
=53	=53	=53	=53	=53	=53	=53	=53	=53	=53	=53	=53	=53	=53	=53	=53	=53
16d\LL	.	.	8ff#\L	.	8aa\L	.	8d\	do-	8d\	do-	8a\	Do-	8ff#\	Do-	8dd\L	8ff#\L
16d\	.	.	.	.	.	.	.	.	.	.	.	.	.	.	.	.
16d\	.	.	8ff#\J	.	8aa\J	.	8D/	-mo	8d\	-mo	8a\	-mo	8ff#\	-mo	8ff#\J	8aa\J
16d\JJ	.	.	.	.	.	.	.	.	.	.	.	.	.	.	.	.
!	!	!	!	!	!	!	!	!	!	!	!	!	!LO:LB:g=original	!	!	!
16d\LL	6 4	.	(16gg\LL	.	16bb\LL	.	8d\	Ma-	8d\	Ma-	16b\	ma-	16gg\	Ma-	4gg\	4bb\
16d\	.	.	16aa\	.	16ccc#\	.	.	.	.	.	16cc#\	-trem	16gg\	-trem	.	.
16d\	.	.	16bb\	.	16ddd\	.	8D/	-trem	8d\	-trem	16dd\	fi-	16gg\	fi-	.	.
16d\JJ	.	.	16gg\JJ)	.	16bb\JJ	.	.	.	.	.	16b\	-li-	16gg\	-li-	.	.
=54	=54	=54	=54	=54	=54	=54	=54	=54	=54	=54	=54	=54	=54	=54	=54	=54
!	!	!	!	!	!	!	!	!	!	!	!	!	!	!	!LO:TX:a:t=problem:mixed beam	!
16D\LL	.	.	8ff#\L	.	8aa\L	.	8D\	Fi-	8d\	fi-	8a\	-o-	8ff#\	-o-	8ff#\L	8aa\L
16D\	.	.	.	.	.	.	.	.	.	.	.	.	.	.	.	.
16D\	.	.	8ff#\J	.	8aa\J	.	8F#\	-li-	8d\	-li-	8a\	-rum	8ff#\	-rum	8ff#\	8aa\J
16D\JJ	.	.	.	.	.	.	.	.	.	.	.	.	.	.	.	.
!	!	!	!	!	!	!	!	!	!	!	!LO:LB:g=original	!	!	!	!	!
16A\LL	7	.	(16ee\LL	.	16gg\LL	.	8A\	-o-	8c#\	-o-	16g\LL	fi-	16ee\LL	fi-	8ee\	4gg\
16A\	.	.	16cc#\	.	16ee\	.	.	.	.	.	16e\JJ	.	16cc#\JJ	.	.	.
16A\	.	.	16dd\	.	16ff#\	.	8A\	-rum	8c#\	-rum	16f#\LL	-li-	16dd\LL	-li-	8a/J	.
16A\JJ	.	.	16ee\JJ)	.	16gg\JJ	.	.	.	.	.	16g\JJ	.	16ee\JJ	.	.	.
!	!	!	!	!	!	!	!LO:LB:g=original	!	!	!	!	!	!	!	!	!
=55	=55	=55	=55	=55	=55	=55	=55	=55	=55	=55	=55	=55	=55	=55	=55	=55
!LO:TX:a:t=problem:mixed beam	!	!	!	!	!	!	!	!	!	!	!	!	!	!	!	!
8d\L	.	.	8a\L 8ff#	.	(16ff#\LL	.	4d\	lae-	4d\	lae-	4a\	-o-	8ff#\	-o-	4dd\	4ff#\
.	.	.	.	.	16aa\	.	.	.	.	.	.	.	.	.	.	.
8D/J	.	.	8a\J 8ff#	.	16aa\	.	.	.	.	.	.	.	8ff#\	-rum	.	.
.	.	.	.	.	16ddd\JJ)	.	.	.	.	.	.	.	.	.	.	.
8d\L	.	.	(16gg\LL	.	(16bb\LL	.	8A\	-tan-	8d\	-tan-	16b\LL	-rum	16gg\LL	lae-	8r	8r
.	.	.	16ff#\)	.	16aa\	.	.	.	.	.	16a\JJ	.	16ff#\	.	.	.
8d\J	.	.	(16ee\	.	16gg\	.	16d\	-tem	16f#\	-tem	16g\LL	lae-	16ee\	.	8dd\	8ff#\
.	.	.	16dd\JJ)	.	16ff#\JJ)	.	16D/	lae-	16f#\	le-	16f#\JJ	.	16dd\JJ	.	.	.
!LO:LB:g=original	!	!	!	!	!	!	!	!	!LO:LB:g=original	!	!	!	!	!	!LO:LB:g=original	!
=56	=56	=56	=56	=56	=56	=56	=56	=56	=56	=56	=56	=56	=56	=56	=56	=56
16A\LL	.	.	(4dd\	.	(4ff#\	.	16A\LL	-tan-	4f#\	-tan-	4f#\	-tan-	4dd\	-tan-	4dd\	4ff#\
16G#X\	.	.	.	.	.	.	16G#X\JJ	.	.	.	.	.	.	.	.	.
16A\	.	.	.	.	.	.	16A\LL	.	.	.	.	.	.	.	.	.
16G#\JJ	.	.	.	.	.	.	16G#\JJ	.	.	.	.	.	.	.	.	.
16A\LL	.	.	4cc#\)	.	4ee\)	.	4A\	-tem	8e\	-tem	8e\	-tem,	8cc#\	-tem	4a/	4ee\
16Gn\	.	.	.	.	.	.	.	.	.	.	.	.	.	.	.	.
16F#\	.	.	.	.	.	.	.	.	8r	.	8r	.	8r	.	.	.
16E\JJ	.	.	.	.	.	.	.	.	.	.	.	.	.	.	.	.
!	!	!	!	!	!	!	!	!	!	!	!	!	!LO:LB:g=original	!	!	!
=57	=57	=57	=57	=57	=57	=57	=57	=57	=57	=57	=57	=57	=57	=57	=57	=57
*	*	*	*^	*	*	*	*	*	*	*	*	*	*	*	*	*
!LO:TX:a:t=problem:mixed beam	!	!	!	!	!LO:DY:t=pia	!	!LO:DY:t=pia	!	!	!	!	!	!	!LO:TX:a:t=Solo	!	!	!
8D\L	.	.	16f#\LL	8a/L	p	16dd\LL	p	8d\	Glo-	8A/	Glo-	16f#\LL	Glo-	16dd\LL	Glo-	4f#/	4dd\
.	.	.	16e\	.	.	16cc#\	.	.	.	.	.	16e\JJ	.	16cc#\JJ	.	.	.
8d\	.	.	16f#\	8a/J	.	16dd\	.	16d\	-ri-	16A/	-ri-	16f#\	-ri-	16dd\	-ri-	.	.
.	.	.	16g\JJ	.	.	16ee\JJ	.	16d\	-a	16A/	-a	16g\	-a	16ee\	-a	.	.
*	*	*	*v	*v	*	*	*	*	*	*	*	*	*	*	*	*	*
!	!	!	!	!	!LO:TX:a:t=problem:mixed beam	!	!	!	!	!	!	!	!	!	!	!
8d\	.	.	(16f#/LL	.	8dd\L	.	8d\	Pa-	8A/	Pa-	8f#\	Pa-	8dd\	Pa-	8f#/L	8dd\L
.	.	.	16a/	.	.	.	.	.	.	.	.	.	.	.	.	.
8D/J	.	.	16f#/	.	8d/J	.	8D/	-tri	8A/	-tri	8f#\	-tri	8dd\	-tri	8f#/J	8dd\J
.	.	.	16a/JJ)	.	.	.	.	.	.	.	.	.	.	.	.	.
!	!	!	!	!	!	!	!	!	!	!	!	!	!	!	!	!LO:LB:g=original
=58	=58	=58	=58	=58	=58	=58	=58	=58	=58	=58	=58	=58	=58	=58	=58	=58
!LO:TX:a:t=problem:mixed beam	!	!	!	!	!	!	!	!	!	!	!	!	!	!	!	!
8d'\L	.	.	(16dd\LL	.	16ff#\LL	.	8d\	Pa-	8A/	Pa-	8a\	Pa-	8ff#\	Pa-	4dd\	4ff#\
.	.	.	16cc#\	.	16ee\	.	.	.	.	.	.	.	.	.	.	.
8d'\	.	.	16dd\	.	16ff#\	.	16d\	-tri	16A/	-tri	16a\	-tri	16ff#\	-tri	.	.
.	.	.	16ee\JJ)	.	16gg\JJ	.	16d\	et	16A/	et	16a\	et	16gg\	et	.	.
!	!	!	!	!	!LO:TX:a:t=problem:mixed beam	!	!	!	!	!	!	!	!	!	!	!
8d'\	.	.	(16dd\LL	.	8ff#\L	.	16d\	Fi-	16A/	fi-	16a\	fi-	16ff#\	fi-	8dd\L	8ff#\L
.	.	.	16a\JJ)	.	.	.	16d\	-li-	16A/	-li-	16a\	-li-	16ff#\	-li-	.	.
8D'/J	.	.	(16f#/LL	.	8d/J	.	8D/	-o	8A/	-o	8a\	-o	8ff#\	-o	8dd\J	8ff#\J
.	.	.	16a/JJ)	.	.	.	.	.	.	.	.	.	.	.	.	.
!	!	!	!	!	!	!	!LO:LB:g=original	!	!	!	!LO:LB:g=original	!	!	!	!	!
=59	=59	=59	=59	=59	=59	=59	=59	=59	=59	=59	=59	=59	=59	=59	=59	=59
8D\L	.	.	8ff#\L	.	8aa\L	.	8D\	et	8A/	et	8a\	et	8ff#\	et	4ff#\	4aa\
8D\	.	.	8ff#\J	.	8aa\J	.	8d\	Spi-	8A/	Spi-	8a\	Spi-	8ff#\	Spi-	.	.
!	!	!	!	!	!LO:LB:g=original	!	!	!	!	!	!	!	!	!	!	!
8D\	.	.	16gg\LL	.	16bb\LL	.	8d\	-ri-	16d\	-ri-	16b\LL	-ri-	16gg\	-ri-	4r	4r
.	.	.	16aa\	.	16ccc#\	.	.	.	16d\	-tu-	16cc#\JJ	.	16gg\	-tu-	.	.
8D\J	.	.	16bb\	.	16ddd\	.	16d\	-tu-	8d\	-i	16dd\	-tu-	8gg\	-i	.	.
.	.	.	16gg\JJ	.	16bb\JJ	.	16f#\	-i	.	.	16b\	-i	.	.	.	.
!	!	!	!LO:LB:g=original	!	!	!	!	!	!LO:LB:g=original	!	!	!	!LO:LB:g=original	!	!	!
=60	=60	=60	=60	=60	=60	=60	=60	=60	=60	=60	=60	=60	=60	=60	=60	=60
!LO:TX:a:t=problem:mixed beam	!	!	!	!	!	!	!	!	!	!	!	!	!	!	!	!
8E\L	.	.	(8ff#\L	.	(8aa\L	.	8e\L	San-	8c#\L	San-	8a\L	San-	8cc#\L	San-	8ff#\L	8aa\L
8AA/J	.	.	8ee\J)	.	8gg\J	.	8A\J	.	8e\J	.	8g\J	.	8ee\J	.	8ee\J	8gg\J
16D\LL	.	.	16dd\LL	.	4ff#\)	.	4d\	-cto	4A/	-cto	4f#\	-cto	4dd\	-cto	4dd\	4ff#\
16D\	.	.	16a\	.	.	.	.	.	.	.	.	.	.	.	.	.
16F#\	.	.	16f#\	.	.	.	.	.	.	.	.	.	.	.	.	.
16A\JJ	.	.	16a\JJ	.	.	.	.	.	.	.	.	.	.	.	.	.
=61	=61	=61	=61	=61	=61	=61	=61	=61	=61	=61	=61	=61	=61	=61	=61	=61
!LO:TX:a:t=problem:mixed beam	!	!	!	!	!	!	!	!	!	!	!	!	!	!	!	!
8d\L	.	.	(16f#/LL 16a	.	16dd\LL	.	8d\	si-	8A/	si-	16f#\LL	si-	16dd\LL	si-	4f#/	4dd\
.	.	.	16e/)	.	16cc#\	.	.	.	.	.	16e\JJ	.	16cc#\JJ	.	.	.
8d\	.	.	(16f#/ 16a	.	16dd\	.	8d\	-cut	8A/	-cut	16f#\LL	-cut	16dd\LL	-cut	.	.
.	.	.	16g/JJ)	.	16ee\JJ	.	.	.	.	.	16g\JJ	.	16ee\JJ	.	.	.
!	!	!	!	!	!LO:TX:a:t=problem:mixed beam	!	!	!	!	!	!	!	!	!	!	!
8d\	.	.	8f#/L 8a	.	8dd\L	.	8d\	e-	8A/	e-	8f#\	e-	8dd\	e-	8f#/L	8dd\L
8D/J	.	.	8f#/J 8a	.	8d/J	.	8D/	-rat	8A/	-rat	8f#\	-rat	8dd\	-rat	8f#/J	8dd\J
=62	=62	=62	=62	=62	=62	=62	=62	=62	=62	=62	=62	=62	=62	=62	=62	=62
!LO:TX:a:t=problem:mixed beam	!	!	!	!	!	!	!	!	!	!	!	!	!	!	!	!
8d'\L	.	.	(16dd\LL	.	16ff#\LL	.	8d\	in	16d\LL	in	8a\	in	(16ff#\LL	in	4dd\	4ff#\
.	.	.	16cc#\	.	16ee\	.	.	.	16c#\	.	.	.	16ee\JJ)	.	.	.
8d'\	.	.	16dd\	.	16ff#\	.	8d\	prin-	16d\	prin-	8a\	prin-	(16ff#\LL	prin-	.	.
.	.	.	16ee\JJ)	.	16gg\JJ	.	.	.	16e\JJ	.	.	.	16gg\JJ)	.	.	.
!	!	!	!LO:TX:a:t=problem:mixed beam	!	!	!	!	!	!	!	!	!	!	!	!	!
8d'\	.	.	8dd\L	.	8ff#/L	.	16d\	-ci-	16d\	-ci-	16a\	-ci-	16ff#\	-ci-	8dd\L	8ff#\L
.	.	.	.	.	.	.	16d\	-pi-	16d\	-pi-	16a\	-pi-	16ff#\	-pi-	.	.
8D'/J	.	.	8f#/J	.	8d/J	.	8D/	-o	8d\	-o	8a\	-o	8ff#\	-o	8dd\J	8ff#\J
!	!	!	!	!	!	!	!LO:LB:g=original	!	!	!	!	!	!	!	!	!
=63	=63	=63	=63	=63	=63	=63	=63	=63	=63	=63	=63	=63	=63	=63	=63	=63
!LO:TX:a:t=problem:mixed beam	!	!	!	!	!	!	!	!	!	!	!	!	!	!	!	!
8d\L	.	.	8a\L 8ff#	.	8aa\L	.	8D\L	et	4d\	et	4a\	et	4ff#\	et	4ff#\	4aa\
8D/J	.	.	8a\J 8ff#	.	8aa\J	.	8F#\J	.	.	.	.	.	.	.	.	.
8D\L	.	.	(16ff#\LL	.	16aa\LL	.	8D\	nunc	8d\	nunc	16a\LL	nunc	16ff#\LL	nunc	8ff#\L	8aa\L
.	.	.	16dd\)	.	16ff#\	.	.	.	.	.	16f#\JJ	.	16dd\JJ	.	.	.
8G\J	.	.	(16gg\	.	16bb\	.	8F#\	et	8d\	et	16b\LL	et	16gg\LL	et	16gg\L	16bb\L
.	.	.	16ee\JJ)	.	16gg\JJ	.	.	.	.	.	16g\JJ	.	16ff#\JJ	.	16ee\JJ	16gg\JJ
!LO:LB:g=original	!	!	!	!	!	!	!	!	!LO:LB:g=original	!	!LO:LB:g=original	!	!LO:LB:g=original	!	!	!
=64	=64	=64	=64	=64	=64	=64	=64	=64	=64	=64	=64	=64	=64	=64	=64	=64
!LO:TX:a:t=problem:mixed beam	!	!	!	!	!	!	!LO:TX:a:t=problem:mixed beam	!	!	!	!	!	!	!	!	!
8A\L	.	.	8a/L	.	8ff#\L	.	8A\L	sem-	4A/	Sem-	8f#\L	sem-	(8ff#\L	sem-	8dd\L	8ff#\L
8AA/J	.	.	8A/J 8g	.	8ee\J	.	8AA/J	.	.	.	8e\J	.	8ee\J)	.	8a/J	8ee\J
16D\LL	.	.	4A/ 4f#	.	4dd\	.	4D/	-per	4A/	-per,	4d\	-per,	4dd\	-per	4f#/	4dd\
16E\	.	.	.	.	.	.	.	.	.	.	.	.	.	.	.	.
16F#\	.	.	.	.	.	.	.	.	.	.	.	.	.	.	.	.
16G#X\JJ	.	.	.	.	.	.	.	.	.	.	.	.	.	.	.	.
=65	=65	=65	=65	=65	=65	=65	=65	=65	=65	=65	=65	=65	=65	=65	=65	=65
!	!	!	!	!	!	!	!LO:TX:a:t=4	!	!LO:TX:a:t=Solo	!	!LO:TX:a:t=4.	!	!LO:TX:a:t=Solo	!	!LO:TX:a:t=6	!LO:TX:a:t=6
!	!	!	!	!LO:DY:t=pia	!	!LO:DY:t=piano.	!LO:N:vis=00	!	!	!	!LO:N:vis=00	!	!	!	!LO:N:vis=00	!LO:N:vis=00
8A\L	.	.	(16cc#\LL	p	16ee\LL	p	0r	.	16e\LL	et	0r	.	16cc#\LL	et	0r	0r
.	.	.	16b\	.	16dd\	.	.	.	16d\JJ	.	.	.	16b\JJ	.	.	.
8A\	.	.	16a\	.	16cc#\	.	.	.	16c#\LL	in	.	.	16a\LL	in	.	.
.	.	.	16b\JJ)	.	16dd\JJ	.	.	.	16d\JJ	.	.	.	16b\JJ	.	.	.
8A\	.	.	8cc#\L	.	16ee\LL	.	.	.	16e\	sae-	.	.	16cc#\	sae-	.	.
.	.	.	.	.	16a\	.	.	.	16e\	-cu-	.	.	16cc#\	-cu-	.	.
8A\J	6 4	.	8dd\J	.	16ff#\	.	.	.	8f#\	-la	.	.	8dd\	-la	.	.
.	.	.	.	.	16a\JJ	.	.	.	.	.	.	.	.	.	.	.
!	!	!	!	!	!LO:LB:g=original	!	!	!	!	!	!	!	!	!	!	!
=66	=66	=66	=66	=66	=66	=66	=66	=66	=66	=66	=66	=66	=66	=66	=66	=66
8A\L	7	.	8ee\L	.	8gg\L	.	.	.	8g\	sae-	.	.	8ee\	sae-	.	.
8A\J	.	.	8ee\J	.	8gg\J	.	.	.	8g\	-cu-	.	.	8ee\	-cu-	.	.
16A\LL	.	.	4e/ 4cc#	.	4ee\	.	.	.	8e\	-lo-	.	.	8cc#\	-lo-	.	.
16E\JJ	.	.	.	.	.	.	.	.	.	.	.	.	.	.	.	.
16C#/LL	.	.	.	.	.	.	.	.	8e\	-rum	.	.	8cc#\	-rum	.	.
16AA/JJ	.	.	.	.	.	.	.	.	.	.	.	.	.	.	.	.
!	!	!	!LO:LB:g=original	!	!	!	!	!	!	!	!	!	!	!	!	!
=67	=67	=67	=67	=67	=67	=67	=67	=67	=67	=67	=67	=67	=67	=67	=67	=67
8D\L	.	.	8a/L	.	16ff#\LL	.	.	.	16f#\LL	et	.	.	8dd\	et	.	.
.	.	.	.	.	16ee\	.	.	.	16e\JJ	.	.	.	.	.	.	.
8d\	.	.	8a/J	.	16dd\	.	.	.	16d\LL	in	.	.	8dd\	in	.	.
.	.	.	.	.	16ee\JJ	.	.	.	16e\JJ	.	.	.	.	.	.	.
8d\	.	.	16dd\LL	.	16ff#\LL	.	.	.	16f#\	sae-	.	.	8dd\	sae-	.	.
.	.	.	16a\	.	16a\	.	.	.	16f#\	-cu-	.	.	.	.	.	.
8d\J	.	.	16ee\	.	16gg\	.	.	.	8g\	-la	.	.	16ee\	-cu-	.	.
.	.	.	16a\JJ	.	16a\JJ	.	.	.	.	.	.	.	16ee\	-la	.	.
!	!	!	!	!	!	!	!	!	!LO:LB:g=original	!	!	!	!LO:LB:g=original	!	!	!
=68	=68	=68	=68	=68	=68	=68	=68	=68	=68	=68	=68	=68	=68	=68	=68	=68
8D\L	.	.	8ff#\L	.	8aa\L	.	.	.	8a\	sae-	.	.	8ff#\	sae-	.	.
8d\J	.	.	8ff#\J	.	8aa\J	.	.	.	8a\	-cu-	.	.	8ff#\	-cu-	.	.
16d\LL	.	.	16dd\LL	.	4ff#\	.	.	.	8f#\	-lo-	.	.	8dd\	-lo-	.	.
16A\	.	.	16ff#\	.	.	.	.	.	.	.	.	.	.	.	.	.
16F#\	.	.	16aa\	.	.	.	.	.	8f#\	-rum	.	.	8dd\	-rum	.	.
16D\JJ	.	.	16ff#\JJ	.	.	.	.	.	.	.	.	.	.	.	.	.
=69	=69	=69	=69	=69	=69	=69	=69	=69	=69	=69	=69	=69	=69	=69	=69	=69
!LO:TX:a:t=Tutti	!	!	!	!LO:DY:t=for	!	!	!	!	!	!	!	!	!	!	!LO:N:vis=0	!LO:N:vis=0
8G\L	.	.	(16ee\LL	f	16gg\LL	.	8G\	A-	8g\	A-	8b\	A-	8dd\	A-	1r	1r
.	.	.	16dd\	.	16ff#\	.	.	.	.	.	.	.	.	.	.	.
8D\J	.	.	16ee\	.	16gg\	.	8G\	-men	8g\	-men	8b\	-men.	8dd\	-men	.	.
.	.	.	16ff#\JJ)	.	16aa\JJ	.	.	.	.	.	.	.	.	.	.	.
16G\LL	.	.	8gg\L	.	8bb\L	.	4r	.	4r	.	4r	.	4r	.	.	.
16F#\	.	.	.	.	.	.	.	.	.	.	.	.	.	.	.	.
16E\	.	.	8gg\J	.	8bb\J	.	.	.	.	.	.	.	.	.	.	.
16D\JJ	.	.	.	.	.	.	.	.	.	.	.	.	.	.	.	.
!LO:LB:g=original	!	!	!	!	!	!	!	!	!	!	!	!	!	!	!	!
=70	=70	=70	=70	=70	=70	=70	=70	=70	=70	=70	=70	=70	=70	=70	=70	=70
!	!	!	!	!	!	!	!	!	!LO:TX:a:t=r	!	!	!	!LO:TX:a:t=1	!	!	!
16C#/LL	7	.	4.gg\	.	4.bb\	.	2r	.	2r	.	2r	.	2r	.	.	.
16C#/	.	.	.	.	.	.	.	.	.	.	.	.	.	.	.	.
16C#/	.	.	.	.	.	.	.	.	.	.	.	.	.	.	.	.
16C#/JJ	.	.	.	.	.	.	.	.	.	.	.	.	.	.	.	.
16C#/LL	.	.	.	.	.	.	.	.	.	.	.	.	.	.	.	.
16C#/	.	.	.	.	.	.	.	.	.	.	.	.	.	.	.	.
16C#/	6	.	16ff#\LL	.	16aa\LL	.	.	.	.	.	.	.	.	.	.	.
16C#/JJ	5	.	16ee\JJ	.	16gg\JJ	.	.	.	.	.	.	.	.	.	.	.
!	!	!	!	!	!	!	!	!	!	!	!	!	!	!	!LO:LB:g=original	!
=71	=71	=71	=71	=71	=71	=71	=71	=71	=71	=71	=71	=71	=71	=71	=71	=71
!LO:TX:a:t=problem:mixed beam	!	!	!	!	!	!	!	!	!	!	!	!	!	!	!	!
!LO:TX:b:t=Tutti	!	!	!	!	!	!	!	!	!	!	!	!	!	!	!	!
8D\L	.	.	8a\L	.	(16ff#\LL	.	8d\	A-	8A/	a-	8a\	a-	8dd\	A-	8ff#\L	8aa\L
.	.	.	.	.	16aa\	.	.	.	.	.	.	.	.	.	.	.
8G\	.	.	16b\L	.	16bb\	.	8G\	-men	8A/	-men	16b\LL	-men	8ee\	-men	8ee\J	8gg\
.	.	.	16ee\JJ	.	16gg\JJ)	.	.	.	.	.	16g\JJ	.	.	.	.	.
!	!	!	!	!	!	!	!LO:TX:a:t=problem:mixed beam	!	!	!	!	!	!	!	!LO:TX:a:t=problem:mixed beam	!
8A\	.	.	8dd\L	.	8ff#\L	.	8A\L	a-	4A/	A-	8f#\L	a-	(8ff#\L	a-	8dd\L	8ff#\
8AA/J	.	.	8cc#\J	.	8ee\J	.	8AA/J	.	.	.	8e\J	.	8ee\J)	.	8a/J	8ee\J
=72	=72	=72	=72	=72	=72	=72	=72	=72	=72	=72	=72	=72	=72	=72	=72	=72
8D\L	.	.	16d/LL	.	16dd\LL	.	4D\	-men	4A/	-men	4d\	-men	4dd\	-men	4f#/	4dd\
.	.	.	(16e/	.	16ee\	.	.	.	.	.	.	.	.	.	.	.
8E\	.	.	16f#/	.	16ff#\	.	.	.	.	.	.	.	.	.	.	.
.	.	.	16g/JJ)	.	16gg\JJ	.	.	.	.	.	.	.	.	.	.	.
8F#\	.	.	16a/LL	.	16aa\LL	.	4r	.	4r	.	4r	.	4r	.	4r	4r
.	.	.	(16f#/	.	16ff#\	.	.	.	.	.	.	.	.	.	.	.
8D\J	.	.	16e/	.	16ee\	.	.	.	.	.	.	.	.	.	.	.
.	.	.	16d/JJ)	.	16dd\JJ	.	.	.	.	.	.	.	.	.	.	.
!	!	!	!	!	!LO:LB:g=original	!	!LO:LB:g=original	!	!	!	!	!	!	!	!	!
=73	=73	=73	=73	=73	=73	=73	=73	=73	=73	=73	=73	=73	=73	=73	=73	=73
!	!	!	!	!	!	!	!	!	!	!	!	!	!	!	!LO:TX:a:t=2	!LO:TX:a:t=2
!LO:TX:a:t=problem:mixed beam	!	!	!	!	!	!	!	!	!	!	!	!	!	!	!LO:N:vis=0	!LO:N:vis=0
8G\L	.	.	8d/L 8b	.	16gg\LL	.	8G\	a-	8d\	a-	8b\	a-	8dd\	A-	1r	1r
.	.	.	.	.	16ff#\	.	.	.	.	.	.	.	.	.	.	.
8GG/J	.	.	16b/L	.	16gg\	.	8G\	-men	8d\	-men	8b\	-men.	8dd\	-men	.	.
.	.	.	16dd/JJ	.	16aa\JJ	.	.	.	.	.	.	.	.	.	.	.
16G\LL	.	.	8dd\L 8ff#	.	8bb\L	.	4r	.	4r	.	4r	.	4r	.	.	.
16F#\	.	.	.	.	.	.	.	.	.	.	.	.	.	.	.	.
16E\	.	.	8dd\J 8gg	.	8bb\J	.	.	.	.	.	.	.	.	.	.	.
16D\JJ	.	.	.	.	.	.	.	.	.	.	.	.	.	.	.	.
!	!	!	!LO:LB:g=original	!	!	!	!	!	!	!	!	!	!LO:LB:g=original	!	!	!
=74	=74	=74	=74	=74	=74	=74	=74	=74	=74	=74	=74	=74	=74	=74	=74	=74
!	!	!	!	!	!	!	!	!	!	!	!	!	!LO:TX:a:t=1	!	!	!
16C#/LL	7	.	4.gg\	.	4.bb\	.	2r	.	2r	.	2r	.	2r	.	.	.
16C#/	.	.	.	.	.	.	.	.	.	.	.	.	.	.	.	.
16C#/	.	.	.	.	.	.	.	.	.	.	.	.	.	.	.	.
16C#/JJ	.	.	.	.	.	.	.	.	.	.	.	.	.	.	.	.
!LO:TX:a:t=problem:mixed beam	!	!	!	!	!	!	!	!	!	!	!	!	!	!	!	!
16C#/LL	.	.	.	.	.	.	.	.	.	.	.	.	.	.	.	.
16c#\	.	.	.	.	.	.	.	.	.	.	.	.	.	.	.	.
16c#\	6	.	(16ff#\LL	.	(16aa\LL	.	.	.	.	.	.	.	.	.	.	.
16c#\JJ	5	.	16ee\JJ)	.	16gg\JJ)	.	.	.	.	.	.	.	.	.	.	.
!	!	!	!	!	!	!	!	!	!LO:LB:g=original	!	!	!	!	!	!	!
=75	=75	=75	=75	=75	=75	=75	=75	=75	=75	=75	=75	=75	=75	=75	=75	=75
*	*	*	*	*	*Xtuplet	*	*	*	*	*	*	*	*	*	*	*
!LO:TX:a:t=problem:mixed beam	!	!	!	!	!	!	!	!	!	!	!	!	!	!	!	!
8d\L	.	.	8dd\L	.	24ff#\LL	.	8D\	a-	8A/	a-	8a\	a-	8dd\	A-	8ff#\L	8aa\L
.	.	.	.	.	24aa\	.	.	.	.	.	.	.	.	.	.	.
.	.	.	.	.	24ddd\JJ	.	.	.	.	.	.	.	.	.	.	.
8G\	.	.	16dd\L	.	16bb\LL	.	8G\	-men	8A/	-men	16b\LL	-men	8ee\	-men	16gg\L	16bb\L
.	.	.	16ee\JJ	.	16gg\JJ	.	.	.	.	.	16g\JJ	.	.	.	16ee\JJ	16gg\JJ
!	!	!	!	!	!	!	!LO:TX:a:t=problem:mixed beam	!	!	!	!LO:LB:g=original	!	!	!	!LO:TX:a:t=problem:mixed beam	!
8A\	.	.	(8dd\L	.	(8ff#\L	.	8A\L	A-	4A/	A-	8f#\L	a-	8ff#\L	a-	8dd\L	8ff#\L
8GG/J	.	.	8cc#\J)	.	8eeT\J)	.	8AA/J	.	.	.	8e\J	.	8ee\J	.	8a/J	8ee\J
!	!	!	!	!	!	!	!	!	!	!	!	!	!	!	!	!LO:LB:g=original
=76	=76	=76	=76	=76	=76	=76	=76	=76	=76	=76	=76	=76	=76	=76	=76	=76
8D\L	.	.	8dd\L	.	8dd\L	.	8D/	-men	4A/	-men	4f#\	-men	4dd\	-men	8f#/L	8dd\L
8d\	.	.	8a\ 8ff#	.	8ddd\	.	8d\L	a-	.	.	.	.	.	.	8a/	8ff#\
8A\	.	.	8a\ 8ff#	.	8ddd\	.	8A\	.	4d\	A-	4a\	a-	4ff#\	a-	8f#/	8dd\
8F#\J	.	.	8a\J 8ff#	.	8ddd\J	.	8F#\J	.	.	.	.	.	.	.	8f#/J	8dd\J
=77	=77	=77	=77	=77	=77	=77	=77	=77	=77	=77	=77	=77	=77	=77	=77	=77
*2\right	*	*	*2\right	*	*2\right	*	*	*	*2\right	*	*2\right	*	*2\right	*	*2\right	*2\right
2D\	.	.	2a\ 2ff#	.	2ff#\ 2ddd	.	2D/	-men.	2d\	-men.	2a\	-men.	2ff#\	-men.	2f#/	2dd\
==	==	==	==	==	==	==	==	==	==	==	==	==	==	==	==	==
*-	*-	*-	*-	*-	*-	*-	*-	*-	*-	*-	*-	*-	*-	*-	*-	*-
!!!system-decoration: [(g1)][(g2)][(g3)][(g4)]
!!!ENC: Anna Matuszewska
!!!END: 2020-06-30
